; G-Code generated by Simplify3D(R) Version 3.1.0
; Juli 18, 2016 at 5:20:47 PM
; Settings Summary
;   processName,Process1
;   applyToModels,FSR_mount
;   profileName,PLA rot (modified)
;   profileVersion,2016-07-16 13:34:37
;   baseProfile,Default (modified)
;   printMaterial,PLA
;   printQuality,Medium
;   printExtruders,
;   extruderName,Primary Extruder
;   extruderToolheadNumber,0
;   extruderDiameter,0.4
;   extruderAutoWidth,1
;   extruderWidth,0.48
;   extrusionMultiplier,0.92
;   extruderUseRetract,1
;   extruderRetractionDistance,1.8
;   extruderExtraRestartDistance,0
;   extruderRetractionZLift,0
;   extruderRetractionSpeed,3600
;   extruderUseCoasting,0
;   extruderCoastingDistance,0.2
;   extruderUseWipe,0
;   extruderWipeDistance,5
;   primaryExtruder,0
;   layerHeight,0.24
;   topSolidLayers,3
;   bottomSolidLayers,3
;   perimeterOutlines,2
;   printPerimetersInsideOut,0
;   startPointOption,2
;   startPointOriginX,0
;   startPointOriginY,0
;   startPointOriginZ,300
;   sequentialIslands,0
;   spiralVaseMode,0
;   firstLayerHeightPercentage,90
;   firstLayerWidthPercentage,100
;   firstLayerUnderspeed,0.5
;   useRaft,0
;   raftExtruder,0
;   raftLayers,3
;   raftOffset,3
;   raftSeparationDistance,0.14
;   raftInfill,85
;   disableRaftBaseLayers,0
;   useSkirt,1
;   skirtExtruder,0
;   skirtLayers,1
;   skirtOutlines,2
;   skirtOffset,4
;   usePrimePillar,0
;   primePillarExtruder,999
;   primePillarWidth,12
;   primePillarLocation,7
;   primePillarSpeedMultiplier,1
;   useOozeShield,0
;   oozeShieldExtruder,999
;   oozeShieldOffset,2
;   oozeShieldOutlines,1
;   oozeShieldSidewallShape,1
;   oozeShieldSidewallAngle,30
;   oozeShieldSpeedMultiplier,1
;   infillExtruder,0
;   internalInfillPattern,Rectilinear
;   externalInfillPattern,Rectilinear
;   infillPercentage,20
;   outlineOverlapPercentage,15
;   infillExtrusionWidthPercentage,100
;   minInfillLength,5
;   infillLayerInterval,1
;   infillAngles,45,-45
;   overlapInfillAngles,0
;   generateSupport,0
;   supportExtruder,0
;   supportInfillPercentage,30
;   supportExtraInflation,0
;   denseSupportLayers,0
;   denseSupportInfillPercentage,70
;   supportLayerInterval,1
;   supportHorizontalPartOffset,0.3
;   supportUpperSeparationLayers,1
;   supportLowerSeparationLayers,1
;   supportType,0
;   supportGridSpacing,4
;   maxOverhangAngle,45
;   supportAngles,0
;   temperatureName,Primary Extruder,Bed
;   temperatureNumber,0,0
;   temperatureSetpointCount,1,2
;   temperatureSetpointLayers,1,1,2
;   temperatureSetpointTemperatures,200,70,65
;   temperatureStabilizeAtStartup,1,1
;   temperatureHeatedBed,0,1
;   temperatureRelayBetweenLayers,0,0
;   temperatureRelayBetweenLoops,0,0
;   fanLayers,1,2
;   fanSpeeds,0,100
;   blipFanToFullPower,0
;   adjustSpeedForCooling,1
;   minSpeedLayerTime,15
;   minCoolingSpeedSlowdown,20
;   increaseFanForCooling,1
;   minFanLayerTime,45
;   maxCoolingFanSpeed,100
;   increaseFanForBridging,1
;   bridgingFanSpeed,100
;   use5D,1
;   relativeEdistances,0
;   allowEaxisZeroing,1
;   independentExtruderAxes,0
;   includeM10123,0
;   stickySupport,1
;   applyToolheadOffsets,0
;   gcodeXoffset,0
;   gcodeYoffset,0
;   gcodeZoffset,0
;   overrideMachineDefinition,0
;   machineTypeOverride,0
;   strokeXoverride,200
;   strokeYoverride,200
;   strokeZoverride,200
;   originOffsetXoverride,0
;   originOffsetYoverride,0
;   originOffsetZoverride,0
;   homeXdirOverride,-1
;   homeYdirOverride,-1
;   homeZdirOverride,-1
;   flipXoverride,1
;   flipYoverride,-1
;   flipZoverride,1
;   toolheadOffsets,0,0|0,0|0,0|0,0|0,0|0,0
;   overrideFirmwareConfiguration,0
;   firmwareTypeOverride,RepRap (Marlin/Repetier/Sprinter)
;   GPXconfigOverride,r2
;   baudRateOverride,115200
;   overridePrinterModels,0
;   printerModelsOverride
;   startingGcode,G28 ; home all axes,G1 Z5 F5000 ; lift Z by 5 mm,M851 Z-0.6 ; set offset for auto-level-system,G29 ; Bed levels,G92 E0                  ;zero the extruded length,G1 F200 E3              ;extrude 3mm of feed stock,G92 E0                  ;zero the extruded length again
;   layerChangeGcode,
;   retractionGcode,
;   toolChangeGcode,
;   endingGcode,M104 S0 ; turn off extruder,M140 S0 ; turn off bed,G91                                    ;relative positioning,G1 Z+2 E-5 X-20 Y-20 F5000 ;move Z up a bit and retract filament even more,G90                         ;absolute positioning,G1 Y150 X180s,M84 ; disable motorsss
;   exportFileFormat,gcode
;   celebration,0
;   celebrationSong,Random Song
;   postProcessing,
;   defaultSpeed,3600
;   outlineUnderspeed,0.5
;   solidInfillUnderspeed,0.8
;   supportUnderspeed,0.8
;   rapidXYspeed,4800
;   rapidZspeed,1002
;   minBridgingArea,50
;   bridgingExtraInflation,0
;   bridgingExtrusionMultiplier,1
;   bridgingSpeedMultiplier,1
;   filamentDiameter,1.75
;   filamentPricePerKg,46
;   filamentDensity,1.25
;   useMinPrintHeight,0
;   minPrintHeight,0
;   useMaxPrintHeight,0
;   maxPrintHeight,0
;   useDiaphragm,0
;   diaphragmLayerInterval,20
;   robustSlicing,1
;   mergeAllIntoSolid,0
;   onlyRetractWhenCrossingOutline,1
;   retractBetweenLayers,1
;   useRetractionMinTravel,0
;   retractionMinTravel,3
;   retractWhileWiping,0
;   onlyWipeOutlines,1
;   avoidCrossingOutline,0
;   maxMovementDetourFactor,3
;   toolChangeRetractionDistance,12
;   toolChangeExtraRestartDistance,-0.5
;   toolChangeRetractionSpeed,600
;   allowThinWallGapFill,1
;   thinWallAllowedOverlapPercentage,10
;   horizontalSizeCompensation,0
G90
M82
M106 S0
M140 S70
M190 S70
M104 S200 T0
M109 S200 T0
G28 ; home all axes
G1 Z5 F5000 ; lift Z by 5 mm
M851 Z-0.6 ; set offset for auto-level-system
G29 ; Bed levels
G92 E0                  ;zero the extruded length
G1 F200 E3              ;extrude 3mm of feed stock
G92 E0                  ;zero the extruded length again
G92 E0
G1 E-1.8000 F3600
G1 Z0.216 F1002
; layer 1, Z = 0.216
T0
; tool H0.240 W0.480
; skirt
G1 X63.689 Y39.393 F4800
G1 E0.0000 F1080
G92 E0
G1 X63.715 Y39.353 E0.0021 F1800
G1 X64.222 Y38.693 E0.0388
G1 X64.253 Y38.657 E0.0408
G1 X64.657 Y38.253 E0.0660
G1 X64.693 Y38.222 E0.0681
G1 X65.353 Y37.715 E0.1048
G1 X65.393 Y37.689 E0.1069
G1 X65.887 Y37.403 E0.1320
G1 X65.930 Y37.383 E0.1341
G1 X66.699 Y37.064 E0.1708
G1 X66.744 Y37.049 E0.1729
G1 X67.296 Y36.901 E0.1981
G1 X67.342 Y36.892 E0.2001
G1 X68.025 Y36.802 E0.2305
G1 X68.049 Y36.799 E0.2316
G1 X68.334 Y36.781 E0.2441
G1 X68.357 Y36.780 E0.2452
G1 X131.643 Y36.780 E3.0337
G1 X131.666 Y36.781 E3.0348
G1 X131.951 Y36.799 E3.0473
G1 X131.975 Y36.802 E3.0484
G1 X132.658 Y36.892 E3.0788
G1 X132.704 Y36.901 E3.0808
G1 X133.256 Y37.049 E3.1060
G1 X133.301 Y37.064 E3.1081
G1 X134.070 Y37.383 E3.1448
G1 X134.113 Y37.403 E3.1469
G1 X134.608 Y37.689 E3.1720
G1 X134.647 Y37.715 E3.1741
G1 X135.307 Y38.222 E3.2108
G1 X135.343 Y38.253 E3.2129
G1 X135.747 Y38.657 E3.2381
G1 X135.778 Y38.693 E3.2401
G1 X136.285 Y39.353 E3.2768
G1 X136.311 Y39.393 E3.2789
G1 X136.597 Y39.887 E3.3041
G1 X136.617 Y39.930 E3.3062
G1 X136.936 Y40.699 E3.3428
G1 X136.951 Y40.744 E3.3449
G1 X137.099 Y41.295 E3.3701
G1 X137.108 Y41.342 E3.3722
G1 X137.198 Y42.025 E3.4026
G1 X137.201 Y42.049 E3.4036
G1 X137.219 Y42.334 E3.4162
G1 X137.220 Y42.357 E3.4172
G1 X137.220 Y150.300 E8.1735
G1 X137.110 Y150.565 E8.1861
G1 X134.565 Y153.110 E8.3448
G1 X134.300 Y153.220 E8.3574
G1 X65.700 Y153.220 E11.3801
G1 X65.435 Y153.110 E11.3927
G1 X62.890 Y150.565 E11.5514
G1 X62.780 Y150.300 E11.5640
G1 X62.780 Y42.357 E16.3203
G1 X62.781 Y42.334 E16.3213
G1 X62.799 Y42.049 E16.3339
G1 X62.802 Y42.025 E16.3349
G1 X62.892 Y41.342 E16.3653
G1 X62.901 Y41.296 E16.3674
G1 X63.049 Y40.744 E16.3926
G1 X63.064 Y40.699 E16.3946
G1 X63.383 Y39.930 E16.4313
G1 X63.403 Y39.887 E16.4334
G1 X63.689 Y39.393 E16.4586
G1 X64.097 Y39.646 F4800
G92 E0
G1 X64.106 Y39.633 E0.0007 F1800
G1 X64.593 Y38.998 E0.0360
G1 X64.604 Y38.986 E0.0367
G1 X64.986 Y38.604 E0.0605
G1 X64.998 Y38.593 E0.0612
G1 X65.633 Y38.106 E0.0965
G1 X65.646 Y38.097 E0.0972
G1 X66.114 Y37.827 E0.1210
G1 X66.128 Y37.820 E0.1217
G1 X66.868 Y37.513 E0.1570
G1 X66.883 Y37.508 E0.1576
G1 X67.405 Y37.369 E0.1814
G1 X67.420 Y37.366 E0.1821
G1 X68.080 Y37.279 E0.2115
G1 X68.088 Y37.278 E0.2118
G1 X68.357 Y37.260 E0.2237
G1 X68.365 Y37.260 E0.2241
G1 X131.635 Y37.260 E3.0119
G1 X131.643 Y37.260 E3.0123
G1 X131.912 Y37.278 E3.0241
G1 X131.920 Y37.279 E3.0245
G1 X132.580 Y37.366 E3.0538
G1 X132.595 Y37.369 E3.0545
G1 X133.117 Y37.508 E3.0783
G1 X133.132 Y37.513 E3.0790
G1 X133.872 Y37.820 E3.1143
G1 X133.886 Y37.827 E3.1150
G1 X134.354 Y38.097 E3.1388
G1 X134.367 Y38.106 E3.1395
G1 X135.003 Y38.593 E3.1748
G1 X135.014 Y38.604 E3.1755
G1 X135.396 Y38.986 E3.1993
G1 X135.407 Y38.998 E3.2000
G1 X135.894 Y39.633 E3.2353
G1 X135.903 Y39.646 E3.2360
G1 X136.173 Y40.114 E3.2598
G1 X136.180 Y40.128 E3.2605
G1 X136.487 Y40.868 E3.2958
G1 X136.492 Y40.883 E3.2965
G1 X136.631 Y41.405 E3.3202
G1 X136.634 Y41.420 E3.3209
G1 X136.721 Y42.080 E3.3503
G1 X136.722 Y42.088 E3.3506
G1 X136.740 Y42.357 E3.3625
G1 X136.740 Y42.365 E3.3629
G1 X136.740 Y150.205 E8.1146
G1 X136.703 Y150.293 E8.1188
G1 X134.293 Y152.703 E8.2690
G1 X134.205 Y152.740 E8.2732
G1 X65.795 Y152.740 E11.2875
G1 X65.707 Y152.703 E11.2918
G1 X63.297 Y150.293 E11.4420
G1 X63.260 Y150.205 E11.4462
G1 X63.260 Y42.365 E16.1979
G1 X63.260 Y42.357 E16.1983
G1 X63.278 Y42.088 E16.2101
G1 X63.279 Y42.080 E16.2105
G1 X63.366 Y41.420 E16.2398
G1 X63.369 Y41.405 E16.2405
G1 X63.508 Y40.883 E16.2643
G1 X63.513 Y40.868 E16.2650
G1 X63.820 Y40.128 E16.3003
G1 X63.827 Y40.114 E16.3010
G1 X64.097 Y39.646 E16.3248
G92 E0
G1 E-1.8000 F3600
; outer perimeter
G1 X67.844 Y42.121 F4800
G1 E0.0000 F3600
G92 E0
G1 X67.964 Y41.964 E0.0087 F900
G1 X68.121 Y41.844 E0.0174
G1 X68.304 Y41.768 E0.0262
G1 X68.516 Y41.740 E0.0356
G1 X131.484 Y41.740 E2.8102
G1 X131.696 Y41.768 E2.8196
G1 X131.879 Y41.844 E2.8283
G1 X132.036 Y41.964 E2.8370
G1 X132.156 Y42.121 E2.8457
G1 X132.232 Y42.304 E2.8544
G1 X132.260 Y42.516 E2.8639
G1 X132.260 Y148.260 E7.5233
G1 X67.740 Y148.260 E10.3662
G1 X67.740 Y42.516 E15.0256
G1 X67.768 Y42.304 E15.0351
G1 X67.844 Y42.121 E15.0438
; inner perimeter
G1 X68.263 Y42.363 F4800
G92 E0
G1 X68.306 Y42.306 E0.0031 F1350
G1 X68.363 Y42.263 E0.0063
G1 X68.429 Y42.236 E0.0094
G1 X68.547 Y42.220 E0.0147
G1 X131.453 Y42.220 E2.7865
G1 X131.571 Y42.236 E2.7918
G1 X131.637 Y42.263 E2.7949
G1 X131.694 Y42.306 E2.7980
G1 X131.737 Y42.363 E2.8012
G1 X131.764 Y42.429 E2.8043
G1 X131.780 Y42.547 E2.8096
G1 X131.780 Y147.780 E7.4465
G1 X68.220 Y147.780 E10.2471
G1 X68.220 Y42.547 E14.8840
G1 X68.236 Y42.429 E14.8892
G1 X68.263 Y42.363 E14.8924
; solid layer
G1 X131.123 Y42.628 F4800
G92 E0
G1 X131.372 Y42.877 E0.0155 F1440
G1 X131.372 Y43.556 E0.0454
G1 X130.444 Y42.628 E0.1032
G1 X129.766 Y42.628 E0.1331
G1 X131.372 Y44.234 E0.2332
G1 X131.372 Y44.913 E0.2631
G1 X129.087 Y42.628 E0.4056
G1 X128.408 Y42.628 E0.4355
G1 X131.372 Y45.592 E0.6202
G1 X131.372 Y46.271 E0.6501
G1 X127.729 Y42.628 E0.8771
G1 X127.050 Y42.628 E0.9070
G1 X131.372 Y46.950 E1.1763
G1 X131.372 Y47.629 E1.2062
G1 X126.371 Y42.628 E1.5178
G1 X125.693 Y42.628 E1.5477
G1 X131.372 Y48.307 E1.9017
G1 X131.372 Y48.986 E1.9316
G1 X125.014 Y42.628 E2.3278
G1 X124.335 Y42.628 E2.3577
G1 X131.372 Y49.665 E2.7962
G1 X131.372 Y50.344 E2.8261
G1 X123.656 Y42.628 E3.3069
G1 X122.977 Y42.628 E3.3368
G1 X131.372 Y51.023 E3.8599
G1 X131.372 Y51.702 E3.8898
G1 X122.298 Y42.628 E4.4553
G1 X121.620 Y42.628 E4.4852
G1 X131.372 Y52.380 E5.0929
G1 X131.372 Y53.059 E5.1228
G1 X120.941 Y42.628 E5.7728
G1 X120.262 Y42.628 E5.8027
G1 X131.372 Y53.738 E6.4950
G1 X131.372 Y54.417 E6.5249
G1 X119.583 Y42.628 E7.2596
G1 X118.904 Y42.628 E7.2895
G1 X131.372 Y55.096 E8.0664
G1 X131.372 Y55.774 E8.0963
G1 X118.226 Y42.628 E8.9155
G1 X117.547 Y42.628 E8.9454
G1 X131.372 Y56.453 E9.8069
G1 X131.372 Y57.132 E9.8368
G1 X116.868 Y42.628 E10.7407
G1 X116.189 Y42.628 E10.7706
G1 X131.372 Y57.811 E11.7167
G1 X131.372 Y58.490 E11.7466
G1 X115.510 Y42.628 E12.7350
G1 X114.831 Y42.628 E12.7649
G1 X131.372 Y59.169 E13.7956
G1 X131.372 Y59.847 E13.8256
G1 X114.153 Y42.628 E14.8986
G1 X113.474 Y42.628 E14.9285
G1 X131.372 Y60.526 E16.0438
G1 X131.372 Y61.205 E16.0737
G1 X112.795 Y42.628 E17.2313
G1 X112.116 Y42.628 E17.2612
G1 X131.372 Y61.884 E18.4612
G1 X131.372 Y62.563 E18.4911
G1 X111.437 Y42.628 E19.7333
G1 X110.759 Y42.628 E19.7632
G1 X131.372 Y63.241 E21.0477
G1 X131.372 Y63.920 E21.0776
G1 X110.080 Y42.628 E22.4045
G1 X109.401 Y42.628 E22.4344
G1 X131.372 Y64.599 E23.8035
G1 X131.372 Y65.278 E23.8334
G1 X108.722 Y42.628 E25.2448
G1 X108.043 Y42.628 E25.2747
G1 X131.372 Y65.957 E26.7285
G1 X131.372 Y66.636 E26.7584
G1 X107.364 Y42.628 E28.2544
G1 X106.686 Y42.628 E28.2843
G1 X131.372 Y67.314 E29.8226
G1 X131.372 Y67.993 E29.8525
G1 X106.007 Y42.628 E31.4332
G1 X105.328 Y42.628 E31.4631
G1 X131.372 Y68.672 E33.0860
G1 X131.372 Y69.351 E33.1159
G1 X104.649 Y42.628 E34.7811
G1 X103.970 Y42.628 E34.8110
G1 X131.372 Y70.030 E36.5186
G1 X131.372 Y70.709 E36.5485
G1 X103.291 Y42.628 E38.2983
G1 X102.613 Y42.628 E38.3282
G1 X131.372 Y71.387 E40.1203
G1 X131.372 Y72.066 E40.1502
G1 X101.934 Y42.628 E41.9847
G1 X101.255 Y42.628 E42.0146
G1 X131.372 Y72.745 E43.8913
G1 X131.372 Y73.424 E43.9212
G1 X100.576 Y42.628 E45.8402
G1 X99.897 Y42.628 E45.8702
G1 X131.372 Y74.103 E47.8315
G1 X131.372 Y74.781 E47.8614
G1 X99.219 Y42.628 E49.8650
G1 X98.540 Y42.628 E49.8949
G1 X131.372 Y75.460 E51.9409
G1 X131.372 Y76.139 E51.9708
G1 X97.861 Y42.628 E54.0590
G1 X97.182 Y42.628 E54.0889
G1 X131.372 Y76.818 E56.2195
G1 X131.372 Y77.497 E56.2494
G1 X96.503 Y42.628 E58.4222
G1 X95.824 Y42.628 E58.4521
G1 X131.372 Y78.176 E60.6672
G1 X131.372 Y78.854 E60.6971
G1 X95.146 Y42.628 E62.9546
G1 X94.467 Y42.628 E62.9845
G1 X131.372 Y79.533 E65.2842
G1 X131.372 Y80.212 E65.3141
G1 X93.788 Y42.628 E67.6562
G1 X93.109 Y42.628 E67.6861
G1 X131.372 Y80.891 E70.0704
G1 X131.372 Y81.570 E70.1003
G1 X92.430 Y42.628 E72.5270
G1 X91.751 Y42.628 E72.5569
G1 X131.372 Y82.249 E75.0258
G1 X131.372 Y82.927 E75.0557
G1 X91.073 Y42.628 E77.5669
G1 X90.394 Y42.628 E77.5969
G1 X131.372 Y83.606 E80.1504
G1 X131.372 Y84.285 E80.1803
G1 X89.715 Y42.628 E82.7761
G1 X89.036 Y42.628 E82.8060
G1 X131.372 Y84.964 E85.4442
G1 X131.372 Y85.643 E85.4741
G1 X88.357 Y42.628 E88.1545
G1 X87.679 Y42.628 E88.1844
G1 X131.372 Y86.321 E90.9072
G1 X131.372 Y87.000 E90.9371
G1 X87.000 Y42.628 E93.7021
G1 X86.321 Y42.628 E93.7320
G1 X131.372 Y87.679 E96.5394
G1 X131.372 Y88.358 E96.5693
G1 X85.642 Y42.628 E99.4189
G1 X84.963 Y42.628 E99.4488
G1 X131.372 Y89.037 E102.3408
G1 X131.372 Y89.716 E102.3707
G1 X84.284 Y42.628 E105.3049
G1 X83.606 Y42.628 E105.3348
G1 X131.372 Y90.394 E108.3114
G1 X131.372 Y91.073 E108.3413
G1 X82.927 Y42.628 E111.3601
G1 X82.248 Y42.628 E111.3900
G1 X131.372 Y91.752 E114.4512
G1 X131.372 Y92.431 E114.4811
G1 X81.569 Y42.628 E117.5845
G1 X80.890 Y42.628 E117.6145
G1 X131.372 Y93.110 E120.7602
G1 X131.372 Y93.789 E120.7901
G1 X80.211 Y42.628 E123.9781
G1 X79.533 Y42.628 E124.0081
G1 X131.372 Y94.467 E127.2384
G1 X131.372 Y95.146 E127.2683
G1 X78.854 Y42.628 E130.5410
G1 X78.175 Y42.628 E130.5709
G1 X131.372 Y95.825 E133.8858
G1 X131.372 Y96.504 E133.9157
G1 X77.496 Y42.628 E137.2730
G1 X76.817 Y42.628 E137.3029
G1 X131.372 Y97.183 E140.7024
G1 X131.372 Y97.861 E140.7323
G1 X76.139 Y42.628 E144.1742
G1 X75.460 Y42.628 E144.2041
G1 X131.372 Y98.540 E147.6882
G1 X131.372 Y99.219 E147.7182
G1 X74.781 Y42.628 E151.2446
G1 X74.102 Y42.628 E151.2745
G1 X131.372 Y99.898 E154.8433
G1 X131.372 Y100.577 E154.8732
G1 X73.423 Y42.628 E158.4842
G1 X72.744 Y42.628 E158.5141
G1 X131.372 Y101.256 E162.1675
G1 X131.372 Y101.934 E162.1974
G1 X72.066 Y42.628 E165.8930
G1 X71.387 Y42.628 E165.9229
G1 X131.372 Y102.613 E169.6609
G1 X131.372 Y103.292 E169.6908
G1 X70.708 Y42.628 E173.4711
G1 X70.029 Y42.628 E173.5010
G1 X131.372 Y103.971 E177.3235
G1 X131.372 Y104.650 E177.3534
G1 X69.350 Y42.628 E181.2183
G1 X68.672 Y42.628 E181.2482
G1 X131.372 Y105.328 E185.1553
