; G-Code generated by Simplify3D(R) Version 3.1.0
; Sep. 25, 2016 at 7:35:56 PM
; Settings Summary
;   processName,Process1
;   applyToModels,lüfterrechts
;   profileName,PETG DasFilament (modified)
;   profileVersion,2016-09-18 13:59:56
;   baseProfile,
;   printMaterial,
;   printQuality,
;   printExtruders,
;   extruderName,Primary Extruder
;   extruderToolheadNumber,0
;   extruderDiameter,0.4
;   extruderAutoWidth,0
;   extruderWidth,0.4
;   extrusionMultiplier,1.06
;   extruderUseRetract,1
;   extruderRetractionDistance,4.5
;   extruderExtraRestartDistance,0
;   extruderRetractionZLift,0
;   extruderRetractionSpeed,4800
;   extruderUseCoasting,1
;   extruderCoastingDistance,0.6
;   extruderUseWipe,0
;   extruderWipeDistance,5
;   primaryExtruder,0
;   layerHeight,0.2
;   topSolidLayers,3
;   bottomSolidLayers,3
;   perimeterOutlines,2
;   printPerimetersInsideOut,0
;   startPointOption,3
;   startPointOriginX,0
;   startPointOriginY,0
;   startPointOriginZ,0
;   sequentialIslands,0
;   spiralVaseMode,0
;   firstLayerHeightPercentage,90
;   firstLayerWidthPercentage,100
;   firstLayerUnderspeed,0.5
;   useRaft,0
;   raftExtruder,0
;   raftLayers,3
;   raftOffset,3
;   raftSeparationDistance,0.14
;   raftInfill,85
;   disableRaftBaseLayers,0
;   useSkirt,1
;   skirtExtruder,0
;   skirtLayers,1
;   skirtOutlines,2
;   skirtOffset,4
;   usePrimePillar,0
;   primePillarExtruder,999
;   primePillarWidth,12
;   primePillarLocation,7
;   primePillarSpeedMultiplier,1
;   useOozeShield,0
;   oozeShieldExtruder,999
;   oozeShieldOffset,2
;   oozeShieldOutlines,1
;   oozeShieldSidewallShape,1
;   oozeShieldSidewallAngle,30
;   oozeShieldSpeedMultiplier,1
;   infillExtruder,0
;   internalInfillPattern,Rectilinear
;   externalInfillPattern,Rectilinear
;   infillPercentage,20
;   outlineOverlapPercentage,12
;   infillExtrusionWidthPercentage,100
;   minInfillLength,5
;   infillLayerInterval,1
;   infillAngles,45,-45
;   overlapInfillAngles,0
;   generateSupport,0
;   supportExtruder,0
;   supportInfillPercentage,20
;   supportExtraInflation,1.4
;   denseSupportLayers,0
;   denseSupportInfillPercentage,70
;   supportLayerInterval,1
;   supportHorizontalPartOffset,0.3
;   supportUpperSeparationLayers,1
;   supportLowerSeparationLayers,1
;   supportType,0
;   supportGridSpacing,2
;   maxOverhangAngle,50
;   supportAngles,0
;   temperatureName,Primary Extruder,Heated Bed
;   temperatureNumber,0,0
;   temperatureSetpointCount,1,2
;   temperatureSetpointLayers,1,1,2
;   temperatureSetpointTemperatures,225,90,85
;   temperatureStabilizeAtStartup,1,1
;   temperatureHeatedBed,0,1
;   temperatureRelayBetweenLayers,0,0
;   temperatureRelayBetweenLoops,0,0
;   fanLayers,1,3
;   fanSpeeds,0,80
;   blipFanToFullPower,1
;   adjustSpeedForCooling,1
;   minSpeedLayerTime,15
;   minCoolingSpeedSlowdown,20
;   increaseFanForCooling,1
;   minFanLayerTime,45
;   maxCoolingFanSpeed,100
;   increaseFanForBridging,1
;   bridgingFanSpeed,100
;   use5D,1
;   relativeEdistances,0
;   allowEaxisZeroing,1
;   independentExtruderAxes,0
;   includeM10123,0
;   stickySupport,1
;   applyToolheadOffsets,0
;   gcodeXoffset,0
;   gcodeYoffset,0
;   gcodeZoffset,0
;   overrideMachineDefinition,0
;   machineTypeOverride,0
;   strokeXoverride,200
;   strokeYoverride,200
;   strokeZoverride,200
;   originOffsetXoverride,0
;   originOffsetYoverride,0
;   originOffsetZoverride,0
;   homeXdirOverride,-1
;   homeYdirOverride,-1
;   homeZdirOverride,-1
;   flipXoverride,1
;   flipYoverride,-1
;   flipZoverride,1
;   toolheadOffsets,0,0|0,0|0,0|0,0|0,0|0,0
;   overrideFirmwareConfiguration,0
;   firmwareTypeOverride,RepRap (Marlin/Repetier/Sprinter)
;   GPXconfigOverride,r2
;   baudRateOverride,115200
;   overridePrinterModels,0
;   printerModelsOverride
;   startingGcode,M851 Z-1.1 ; set offset for auto-level-system,G28 ; home all axes,G29 ; Bed levels,G92 E0                  ;zero the extruded length,G1 F200 E5              ;extrude 3mm of feed stock,G92 E0                  ;zero the extruded length again,
;   layerChangeGcode,
;   retractionGcode,
;   toolChangeGcode,
;   endingGcode,G91                                    ;relative positioning,G1 Z+3 E-6 X-20 Y-20 F9000 ;move Z up a bit and retract filament even more,G90                         ;absolute positioning,G1 Y150 X180s,M84 ; disable motors,M104 S0 ; turn off extruder,M140 S0 ; turn off bed,
;   exportFileFormat,
;   celebration,0
;   celebrationSong,Random Song
;   postProcessing,
;   defaultSpeed,2400
;   outlineUnderspeed,1
;   solidInfillUnderspeed,1
;   supportUnderspeed,1
;   rapidXYspeed,9000
;   rapidZspeed,1800
;   minBridgingArea,50
;   bridgingExtraInflation,0
;   bridgingExtrusionMultiplier,1
;   bridgingSpeedMultiplier,0.7
;   filamentDiameter,1.75
;   filamentPricePerKg,26
;   filamentDensity,1.25
;   useMinPrintHeight,0
;   minPrintHeight,0
;   useMaxPrintHeight,0
;   maxPrintHeight,0
;   useDiaphragm,0
;   diaphragmLayerInterval,20
;   robustSlicing,1
;   mergeAllIntoSolid,0
;   onlyRetractWhenCrossingOutline,0
;   retractBetweenLayers,0
;   useRetractionMinTravel,0
;   retractionMinTravel,3
;   retractWhileWiping,1
;   onlyWipeOutlines,0
;   avoidCrossingOutline,0
;   maxMovementDetourFactor,3
;   toolChangeRetractionDistance,12
;   toolChangeExtraRestartDistance,-0.5
;   toolChangeRetractionSpeed,600
;   allowThinWallGapFill,1
;   thinWallAllowedOverlapPercentage,10
;   horizontalSizeCompensation,0
G90
M82
M106 S0
M140 S90
M190 S90
M104 S225 T0
M109 S225 T0
M851 Z-1.1 ; set offset for auto-level-system
G28 ; home all axes
G29 ; Bed levels
G92 E0                  ;zero the extruded length
G1 F200 E5              ;extrude 3mm of feed stock
G92 E0                  ;zero the extruded length again
G92 E0
G1 E-4.5000 F4800
G1 Z0.180 F1800
; layer 1, Z = 0.18
T0
; tool H0.200 W0.400
; skirt
G1 X88.442 Y63.232 F9000
G1 E0.0000 F1440
G92 E0
G1 X99.474 Y56.863 E0.4491 F1200
G1 X99.711 Y56.831 E0.4575
G1 X103.142 Y57.751 E0.5828
G1 X103.332 Y57.896 E0.5912
G1 X107.292 Y64.756 E0.8705
G1 X107.325 Y64.842 E0.8737
G1 X107.612 Y66.131 E0.9202
G1 X107.618 Y66.222 E0.9235
G1 X107.148 Y71.666 E1.1161
G1 X108.328 Y71.666 E1.1577
G1 X108.549 Y71.757 E1.1661
G1 X111.063 Y74.280 E1.2917
G1 X111.154 Y74.501 E1.3001
G1 X111.017 Y114.053 E2.6946
G1 X110.968 Y114.171 E2.6991
G1 X110.968 Y130.042 E3.2586
G1 X110.877 Y130.262 E3.2670
G1 X108.365 Y132.774 E3.3923
G1 X108.144 Y132.866 E3.4007
G1 X95.972 Y132.866 E3.8298
G1 X95.751 Y132.774 E3.8382
G1 X93.239 Y130.262 E3.9635
G1 X93.148 Y130.042 E3.9719
G1 X93.148 Y79.176 E5.7652
G1 X93.148 Y79.163 E5.7657
G1 X93.156 Y78.983 E5.7720
G1 X93.157 Y78.971 E5.7724
G1 X93.221 Y78.202 E5.7997
G1 X93.224 Y78.177 E5.8005
G1 X93.284 Y77.822 E5.8132
G1 X93.290 Y77.797 E5.8141
G1 X93.504 Y76.962 E5.8445
G1 X93.511 Y76.938 E5.8454
G1 X93.629 Y76.598 E5.8581
G1 X93.639 Y76.575 E5.8590
G1 X93.989 Y75.787 E5.8894
G1 X94.000 Y75.765 E5.8902
G1 X94.173 Y75.449 E5.9029
G1 X94.186 Y75.428 E5.9038
G1 X94.663 Y74.710 E5.9342
G1 X94.678 Y74.689 E5.9351
G1 X94.901 Y74.407 E5.9478
G1 X94.918 Y74.388 E5.9487
G1 X95.174 Y74.114 E5.9619
G1 X95.495 Y70.447 E6.0917
G1 X89.934 Y69.961 E6.2885
G1 X89.639 Y69.702 E6.3023
G1 X88.329 Y63.794 E6.5157
G1 X88.284 Y63.591 F1200
G1 X88.442 Y63.232 F1200
G92 E0
G1 E-4.5000 F4800
G1 X88.756 Y63.513 F9000
G1 E0.0000 F4800
G92 E0
G1 X99.605 Y57.249 E0.4417 F1200
G1 X99.684 Y57.238 E0.4445
G1 X102.962 Y58.117 E0.5641
G1 X103.025 Y58.165 E0.5669
G1 X106.931 Y64.930 E0.8423
G1 X106.942 Y64.958 E0.8434
G1 X107.215 Y66.188 E0.8878
G1 X107.217 Y66.218 E0.8889
G1 X106.712 Y72.066 E1.0958
G1 X108.248 Y72.066 E1.1500
G1 X108.322 Y72.096 E1.1528
G1 X110.723 Y74.506 E1.2727
G1 X110.754 Y74.579 E1.2755
G1 X110.617 Y113.973 E2.6644
G1 X110.587 Y114.046 E2.6672
G1 X110.568 Y114.065 E2.6681
G1 X110.568 Y129.962 E3.2286
G1 X110.538 Y130.036 E3.2314
G1 X108.138 Y132.435 E3.3510
G1 X108.065 Y132.466 E3.3538
G1 X96.051 Y132.466 E3.7773
G1 X95.978 Y132.435 E3.7802
G1 X93.579 Y130.036 E3.8998
G1 X93.548 Y129.962 E3.9026
G1 X93.548 Y79.180 E5.6930
G1 X93.548 Y79.176 E5.6931
G1 X93.555 Y79.004 E5.6992
G1 X93.556 Y79.000 E5.6993
G1 X93.619 Y78.243 E5.7261
G1 X93.620 Y78.235 E5.7264
G1 X93.677 Y77.897 E5.7385
G1 X93.679 Y77.888 E5.7388
G1 X93.889 Y77.070 E5.7686
G1 X93.891 Y77.062 E5.7689
G1 X94.004 Y76.737 E5.7810
G1 X94.007 Y76.730 E5.7813
G1 X94.351 Y75.958 E5.8111
G1 X94.355 Y75.950 E5.8113
G1 X94.520 Y75.649 E5.8235
G1 X94.524 Y75.642 E5.8237
G1 X94.992 Y74.938 E5.8535
G1 X94.996 Y74.931 E5.8538
G1 X95.210 Y74.662 E5.8659
G1 X95.215 Y74.655 E5.8662
G1 X95.561 Y74.287 E5.8840
G1 X95.928 Y70.084 E6.0328
G1 X90.099 Y69.574 E6.2391
G1 X90.001 Y69.487 E6.2437
G1 X88.804 Y64.091 E6.4386
G1 X88.703 Y63.633 F1200
G1 X88.756 Y63.513 F1200
G92 E0
G1 E-4.5000 F4800
; outer perimeter
G1 X94.102 Y65.507 F9000
G1 E0.0000 F4800
G92 E0
G1 X100.163 Y62.008 E0.2467 F1200
G1 X102.774 Y66.530 E0.4309
G1 X101.916 Y76.466 E0.7824
G1 X106.347 Y76.466 E0.9386
G1 X106.224 Y112.066 E2.1938
G1 X106.168 Y112.066 E2.1957
G1 X106.168 Y128.066 E2.7598
G1 X97.948 Y128.066 E3.0496
G1 X97.948 Y79.274 E4.7698
G1 X97.988 Y78.799 E4.7866
G1 X98.104 Y78.346 E4.8031
G1 X98.294 Y77.918 E4.8196
G1 X98.553 Y77.528 E4.8361
G1 X98.874 Y77.187 E4.8526
G1 X99.246 Y76.903 E4.8691
G1 X99.773 Y76.628 E4.8901
G1 X100.695 Y66.084 E5.2632
G1 X94.699 Y65.559 E5.4754
G1 X94.102 Y65.507 F1200
G92 E0
G1 E-4.5000 F4800
; inner perimeter
G1 X95.400 Y65.219 F9000
G1 E0.0000 F4800
G92 E0
G1 X100.016 Y62.554 E0.1879 F1200
G1 X102.364 Y66.621 E0.3535
G1 X101.481 Y76.866 E0.7160
G1 X105.946 Y76.866 E0.8734
G1 X105.825 Y111.666 E2.1003
G1 X105.768 Y111.666 E2.1024
G1 X105.768 Y121.340 E2.4434
G1 X105.398 Y120.804 E2.4664
G1 X105.000 Y120.451 E2.4851
G1 X104.530 Y120.204 E2.5039
G1 X104.014 Y120.077 E2.5226
G1 X103.482 Y120.077 E2.5413
G1 X102.966 Y120.204 E2.5601
G1 X102.496 Y120.451 E2.5788
G1 X102.098 Y120.804 E2.5975
G1 X101.796 Y121.241 E2.6163
G1 X101.608 Y121.738 E2.6350
G1 X101.544 Y122.266 E2.6537
G1 X101.608 Y122.793 E2.6725
G1 X101.796 Y123.290 E2.6912
G1 X102.098 Y123.727 E2.7099
G1 X102.496 Y124.080 E2.7287
G1 X102.966 Y124.327 E2.7474
G1 X103.482 Y124.454 E2.7662
G1 X104.014 Y124.454 E2.7849
G1 X104.530 Y124.327 E2.8036
G1 X105.000 Y124.080 E2.8224
G1 X105.398 Y123.727 E2.8411
G1 X105.768 Y123.192 E2.8641
G1 X105.768 Y127.666 E3.0218
G1 X98.348 Y127.666 E3.2834
G1 X98.348 Y79.291 E4.9889
G1 X98.384 Y78.866 E5.0039
G1 X98.483 Y78.478 E5.0180
G1 X98.646 Y78.111 E5.0322
G1 X98.868 Y77.777 E5.0463
G1 X99.142 Y77.485 E5.0604
G1 X99.462 Y77.242 E5.0746
G1 X100.152 Y76.880 E5.1021
G1 X101.128 Y65.720 E5.4970
G1 X95.998 Y65.271 E5.6786
G1 X95.400 Y65.219 F1200
G92 E0
G1 E-4.5000 F4800
; outer perimeter
G1 X101.400 Y82.071 F9000
G1 E0.0000 F4800
G92 E0
G1 X101.153 Y82.428 E0.0153 F1200
G1 X100.999 Y82.835 E0.0306
G1 X100.947 Y83.266 E0.0459
G1 X100.999 Y83.697 E0.0612
G1 X101.153 Y84.103 E0.0766
G1 X101.400 Y84.460 E0.0919
G1 X101.725 Y84.748 E0.1072
G1 X102.109 Y84.950 E0.1225
G1 X102.531 Y85.054 E0.1378
G1 X102.965 Y85.054 E0.1531
G1 X103.387 Y84.950 E0.1684
G1 X103.771 Y84.748 E0.1837
G1 X104.096 Y84.460 E0.1990
G1 X104.343 Y84.103 E0.2144
G1 X104.497 Y83.697 E0.2297
G1 X104.550 Y83.266 E0.2450
G1 X104.497 Y82.835 E0.2603
G1 X104.343 Y82.428 E0.2756
G1 X104.096 Y82.071 E0.2909
G1 X103.771 Y81.783 E0.3062
G1 X103.387 Y81.581 E0.3215
G1 X102.965 Y81.477 E0.3368
G1 X102.531 Y81.477 E0.3522
G1 X102.109 Y81.581 E0.3675
G1 X101.871 Y81.706 E0.3769
G1 X101.725 Y81.783 F1200
G1 X101.400 Y82.071 F1200
G92 E0
G1 E-4.5000 F4800
; inner perimeter
G1 X101.098 Y81.804 F9000
G1 E0.0000 F4800
G92 E0
G1 X100.796 Y82.241 E0.0187 F1200
G1 X100.608 Y82.738 E0.0375
G1 X100.544 Y83.266 E0.0562
G1 X100.608 Y83.793 E0.0749
G1 X100.796 Y84.290 E0.0937
G1 X101.098 Y84.727 E0.1124
G1 X101.496 Y85.080 E0.1312
G1 X101.966 Y85.327 E0.1499
G1 X102.482 Y85.454 E0.1686
G1 X103.014 Y85.454 E0.1874
G1 X103.530 Y85.327 E0.2061
G1 X104.000 Y85.080 E0.2248
G1 X104.398 Y84.727 E0.2436
G1 X104.700 Y84.290 E0.2623
G1 X104.888 Y83.793 E0.2810
G1 X104.952 Y83.266 E0.2998
G1 X104.888 Y82.738 E0.3185
G1 X104.700 Y82.241 E0.3372
G1 X104.398 Y81.804 E0.3560
G1 X104.000 Y81.451 E0.3747
G1 X103.530 Y81.204 E0.3935
G1 X103.014 Y81.077 E0.4122
G1 X102.482 Y81.077 E0.4309
G1 X101.966 Y81.204 E0.4497
G1 X101.557 Y81.420 E0.4660
G1 X101.496 Y81.451 F1200
G1 X101.098 Y81.804 F1200
G92 E0
G1 E-4.5000 F4800
; outer perimeter
G1 X101.400 Y102.071 F9000
G1 E0.0000 F4800
G92 E0
G1 X101.153 Y102.428 E0.0153 F1200
G1 X100.999 Y102.835 E0.0306
G1 X100.947 Y103.266 E0.0459
G1 X100.999 Y103.697 E0.0612
G1 X101.153 Y104.103 E0.0766
G1 X101.400 Y104.460 E0.0919
G1 X101.725 Y104.748 E0.1072
G1 X102.109 Y104.950 E0.1225
G1 X102.531 Y105.054 E0.1378
G1 X102.965 Y105.054 E0.1531
G1 X103.387 Y104.950 E0.1684
G1 X103.771 Y104.748 E0.1837
G1 X104.096 Y104.460 E0.1990
G1 X104.343 Y104.103 E0.2144
G1 X104.497 Y103.697 E0.2297
G1 X104.550 Y103.266 E0.2450
G1 X104.497 Y102.835 E0.2603
G1 X104.343 Y102.428 E0.2756
G1 X104.096 Y102.071 E0.2909
G1 X103.771 Y101.783 E0.3062
G1 X103.387 Y101.581 E0.3215
G1 X102.965 Y101.477 E0.3368
G1 X102.531 Y101.477 E0.3522
G1 X102.109 Y101.581 E0.3675
G1 X101.871 Y101.706 E0.3769
G1 X101.725 Y101.783 F1200
G1 X101.400 Y102.071 F1200
G92 E0
G1 E-4.5000 F4800
; inner perimeter
G1 X101.098 Y101.804 F9000
G1 E0.0000 F4800
G92 E0
G1 X100.796 Y102.241 E0.0187 F1200
G1 X100.608 Y102.738 E0.0375
G1 X100.544 Y103.266 E0.0562
G1 X100.608 Y103.793 E0.0749
G1 X100.796 Y104.290 E0.0937
G1 X101.098 Y104.727 E0.1124
G1 X101.496 Y105.080 E0.1312
G1 X101.966 Y105.327 E0.1499
G1 X102.482 Y105.454 E0.1686
G1 X103.014 Y105.454 E0.1874
G1 X103.530 Y105.327 E0.2061
G1 X104.000 Y105.080 E0.2248
G1 X104.398 Y104.727 E0.2436
G1 X104.700 Y104.290 E0.2623
G1 X104.888 Y103.793 E0.2810
G1 X104.952 Y103.266 E0.2998
G1 X104.888 Y102.738 E0.3185
G1 X104.700 Y102.241 E0.3372
G1 X104.398 Y101.804 E0.3560
G1 X104.000 Y101.451 E0.3747
G1 X103.530 Y101.204 E0.3935
G1 X103.014 Y101.077 E0.4122
G1 X102.482 Y101.077 E0.4309
G1 X101.966 Y101.204 E0.4497
G1 X101.557 Y101.420 E0.4660
G1 X101.496 Y101.451 F1200
G1 X101.098 Y101.804 F1200
G92 E0
G1 E-4.5000 F4800
; outer perimeter
G1 X102.725 Y120.783 F9000
G1 E0.0000 F4800
G92 E0
G1 X102.400 Y121.071 E0.0153 F1200
G1 X102.153 Y121.428 E0.0306
G1 X101.999 Y121.835 E0.0459
G1 X101.947 Y122.266 E0.0612
G1 X101.999 Y122.697 E0.0766
G1 X102.153 Y123.103 E0.0919
G1 X102.400 Y123.460 E0.1072
G1 X102.725 Y123.748 E0.1225
G1 X103.109 Y123.950 E0.1378
G1 X103.531 Y124.054 E0.1531
G1 X103.965 Y124.054 E0.1684
G1 X104.387 Y123.950 E0.1837
G1 X104.771 Y123.748 E0.1990
G1 X105.096 Y123.460 E0.2144
G1 X105.343 Y123.103 E0.2297
G1 X105.497 Y122.697 E0.2450
G1 X105.550 Y122.266 E0.2603
G1 X105.497 Y121.835 E0.2756
G1 X105.343 Y121.428 E0.2909
G1 X105.096 Y121.071 E0.3062
G1 X104.771 Y120.783 E0.3215
G1 X104.387 Y120.581 E0.3368
G1 X103.965 Y120.477 E0.3522
G1 X103.531 Y120.477 E0.3675
G1 X103.270 Y120.542 E0.3769
G1 X103.109 Y120.581 F1200
G1 X102.725 Y120.783 F1200
G92 E0
G1 E-4.5000 F4800
; inner perimeter
; solid layer
G1 X105.100 Y124.425 F9000
G1 E0.0000 F4800
G92 E0
G1 X105.416 Y124.740 E0.0157 F1200
G1 X105.416 Y125.306 E0.0357
G1 X104.729 Y124.620 E0.0699
G1 X104.656 Y124.658 E0.0729
G1 X104.292 Y124.748 E0.0860
G1 X105.416 Y125.872 E0.1421
G1 X105.416 Y126.437 E0.1620
G1 X103.784 Y124.806 E0.2434
G1 X103.440 Y124.806 E0.2555
G1 X103.147 Y124.734 E0.2662
G1 X104.992 Y126.579 E0.3582
G1 X105.416 Y127.003 F1200
G92 E0
G1 E-4.5000 F4800
G1 X98.700 Y127.075 F9000
G1 E0.0000 F4800
G92 E0
G1 X98.938 Y127.314 E0.0119 F1200
G1 X99.504 Y127.314 E0.0318
G1 X98.700 Y126.510 E0.0719
G1 X98.700 Y125.944 E0.0918
G1 X100.070 Y127.314 E0.1601
G1 X100.635 Y127.314 E0.1801
G1 X98.700 Y125.378 E0.2765
G1 X98.700 Y124.813 E0.2965
G1 X101.201 Y127.314 E0.4212
G1 X101.767 Y127.314 E0.4411
G1 X98.700 Y124.247 E0.5940
G1 X98.700 Y123.681 E0.6140
G1 X102.332 Y127.314 E0.7951
G1 X102.898 Y127.314 E0.8150
G1 X98.700 Y123.116 E1.0243
G1 X98.700 Y122.550 E1.0443
