; G-Code generated by Simplify3D(R) Version 3.1.0
; Sep. 27, 2016 at 9:09:58 PM
; Settings Summary
;   processName,Process1
;   applyToModels,lüfterlinks,lüfterrechts
;   profileName,PETG DasFilament (modified)
;   profileVersion,2016-09-18 13:59:56
;   baseProfile,
;   printMaterial,
;   printQuality,
;   printExtruders,
;   extruderName,Primary Extruder
;   extruderToolheadNumber,0
;   extruderDiameter,0.4
;   extruderAutoWidth,0
;   extruderWidth,0.4
;   extrusionMultiplier,1.06
;   extruderUseRetract,1
;   extruderRetractionDistance,4.5
;   extruderExtraRestartDistance,0
;   extruderRetractionZLift,0
;   extruderRetractionSpeed,4800
;   extruderUseCoasting,1
;   extruderCoastingDistance,0.6
;   extruderUseWipe,0
;   extruderWipeDistance,5
;   primaryExtruder,0
;   layerHeight,0.2
;   topSolidLayers,3
;   bottomSolidLayers,3
;   perimeterOutlines,2
;   printPerimetersInsideOut,0
;   startPointOption,3
;   startPointOriginX,0
;   startPointOriginY,0
;   startPointOriginZ,0
;   sequentialIslands,0
;   spiralVaseMode,0
;   firstLayerHeightPercentage,90
;   firstLayerWidthPercentage,100
;   firstLayerUnderspeed,0.5
;   useRaft,0
;   raftExtruder,0
;   raftLayers,3
;   raftOffset,3
;   raftSeparationDistance,0.14
;   raftInfill,85
;   disableRaftBaseLayers,0
;   useSkirt,1
;   skirtExtruder,0
;   skirtLayers,1
;   skirtOutlines,2
;   skirtOffset,4
;   usePrimePillar,0
;   primePillarExtruder,999
;   primePillarWidth,12
;   primePillarLocation,7
;   primePillarSpeedMultiplier,1
;   useOozeShield,0
;   oozeShieldExtruder,999
;   oozeShieldOffset,2
;   oozeShieldOutlines,1
;   oozeShieldSidewallShape,1
;   oozeShieldSidewallAngle,30
;   oozeShieldSpeedMultiplier,1
;   infillExtruder,0
;   internalInfillPattern,Rectilinear
;   externalInfillPattern,Rectilinear
;   infillPercentage,20
;   outlineOverlapPercentage,12
;   infillExtrusionWidthPercentage,100
;   minInfillLength,5
;   infillLayerInterval,1
;   infillAngles,45,-45
;   overlapInfillAngles,0
;   generateSupport,0
;   supportExtruder,0
;   supportInfillPercentage,20
;   supportExtraInflation,1.4
;   denseSupportLayers,0
;   denseSupportInfillPercentage,70
;   supportLayerInterval,1
;   supportHorizontalPartOffset,0.3
;   supportUpperSeparationLayers,1
;   supportLowerSeparationLayers,1
;   supportType,0
;   supportGridSpacing,2
;   maxOverhangAngle,50
;   supportAngles,0
;   temperatureName,Primary Extruder,Heated Bed
;   temperatureNumber,0,0
;   temperatureSetpointCount,1,2
;   temperatureSetpointLayers,1,1,2
;   temperatureSetpointTemperatures,225,90,85
;   temperatureStabilizeAtStartup,1,1
;   temperatureHeatedBed,0,1
;   temperatureRelayBetweenLayers,0,0
;   temperatureRelayBetweenLoops,0,0
;   fanLayers,1,3
;   fanSpeeds,0,80
;   blipFanToFullPower,1
;   adjustSpeedForCooling,1
;   minSpeedLayerTime,15
;   minCoolingSpeedSlowdown,20
;   increaseFanForCooling,1
;   minFanLayerTime,45
;   maxCoolingFanSpeed,100
;   increaseFanForBridging,1
;   bridgingFanSpeed,100
;   use5D,1
;   relativeEdistances,0
;   allowEaxisZeroing,1
;   independentExtruderAxes,0
;   includeM10123,0
;   stickySupport,1
;   applyToolheadOffsets,0
;   gcodeXoffset,0
;   gcodeYoffset,0
;   gcodeZoffset,0
;   overrideMachineDefinition,0
;   machineTypeOverride,0
;   strokeXoverride,200
;   strokeYoverride,200
;   strokeZoverride,200
;   originOffsetXoverride,0
;   originOffsetYoverride,0
;   originOffsetZoverride,0
;   homeXdirOverride,-1
;   homeYdirOverride,-1
;   homeZdirOverride,-1
;   flipXoverride,1
;   flipYoverride,-1
;   flipZoverride,1
;   toolheadOffsets,0,0|0,0|0,0|0,0|0,0|0,0
;   overrideFirmwareConfiguration,0
;   firmwareTypeOverride,RepRap (Marlin/Repetier/Sprinter)
;   GPXconfigOverride,r2
;   baudRateOverride,115200
;   overridePrinterModels,0
;   printerModelsOverride
;   startingGcode,M851 Z-1.1 ; set offset for auto-level-system,G28 ; home all axes,G29 ; Bed levels,G92 E0                  ;zero the extruded length,G1 F200 E5              ;extrude 3mm of feed stock,G92 E0                  ;zero the extruded length again,
;   layerChangeGcode,
;   retractionGcode,
;   toolChangeGcode,
;   endingGcode,G91                                    ;relative positioning,G1 Z+3 E-6 X-20 Y-20 F9000 ;move Z up a bit and retract filament even more,G90                         ;absolute positioning,G1 Y150 X180s,M84 ; disable motors,M104 S0 ; turn off extruder,M140 S0 ; turn off bed,
;   exportFileFormat,gcode
;   celebration,0
;   celebrationSong,Random Song
;   postProcessing,
;   defaultSpeed,2400
;   outlineUnderspeed,1
;   solidInfillUnderspeed,1
;   supportUnderspeed,1
;   rapidXYspeed,9000
;   rapidZspeed,1800
;   minBridgingArea,50
;   bridgingExtraInflation,0
;   bridgingExtrusionMultiplier,1
;   bridgingSpeedMultiplier,0.7
;   filamentDiameter,1.75
;   filamentPricePerKg,26
;   filamentDensity,1.25
;   useMinPrintHeight,0
;   minPrintHeight,0
;   useMaxPrintHeight,0
;   maxPrintHeight,0
;   useDiaphragm,0
;   diaphragmLayerInterval,20
;   robustSlicing,1
;   mergeAllIntoSolid,0
;   onlyRetractWhenCrossingOutline,0
;   retractBetweenLayers,0
;   useRetractionMinTravel,0
;   retractionMinTravel,3
;   retractWhileWiping,1
;   onlyWipeOutlines,0
;   avoidCrossingOutline,0
;   maxMovementDetourFactor,3
;   toolChangeRetractionDistance,12
;   toolChangeExtraRestartDistance,-0.5
;   toolChangeRetractionSpeed,600
;   allowThinWallGapFill,1
;   thinWallAllowedOverlapPercentage,10
;   horizontalSizeCompensation,0
G90
M82
M106 S0
M140 S90
M190 S90
M104 S225 T0
M109 S225 T0
M851 Z-1.1 ; set offset for auto-level-system
G28 ; home all axes
G29 ; Bed levels
G92 E0                  ;zero the extruded length
G1 F200 E5              ;extrude 3mm of feed stock
G92 E0                  ;zero the extruded length again
G92 E0
G1 E-4.5000 F4800
G1 Z0.180 F1800
; layer 1, Z = 0.18
T0
; tool H0.200 W0.400
; skirt
G1 X86.758 Y62.388 F9000
G1 E0.0000 F1440
G92 E0
G1 X86.940 Y62.234 E0.0084 F1200
G1 X90.324 Y61.151 E0.1337
G1 X90.562 Y61.171 E0.1421
G1 X99.878 Y65.970 E0.5116
G1 X100.054 Y66.321 E0.5254
G1 X99.258 Y70.949 E0.6909
G1 X99.261 Y70.952 E0.6911
G1 X99.277 Y70.969 E0.6919
G1 X99.803 Y71.584 E0.7204
G1 X99.817 Y71.603 E0.7213
G1 X99.853 Y71.652 E0.7234
G1 X100.030 Y71.408 E0.7340
G1 X100.045 Y71.390 E0.7349
G1 X100.561 Y70.786 E0.7629
G1 X100.054 Y65.521 E0.9494
G1 X100.255 Y65.183 E0.9632
G1 X109.661 Y61.190 E1.3235
G1 X109.900 Y61.188 E1.3319
G1 X113.194 Y62.519 E1.4571
G1 X113.364 Y62.686 E1.4656
G1 X115.770 Y68.355 E1.6827
G1 X115.793 Y68.444 E1.6859
G1 X115.919 Y69.761 E1.7325
G1 X115.914 Y69.853 E1.7358
G1 X115.793 Y70.423 E1.7563
G1 X116.394 Y71.026 E1.7864
G1 X116.485 Y71.247 E1.7948
G1 X116.349 Y110.800 E3.1893
G1 X116.299 Y110.918 E3.1938
G1 X116.299 Y126.788 E3.7533
G1 X116.208 Y127.009 E3.7617
G1 X113.696 Y129.521 E3.8869
G1 X113.476 Y129.612 E3.8954
G1 X101.303 Y129.612 E4.3245
G1 X101.083 Y129.521 E4.3329
G1 X100.021 Y128.459 E4.3859
G1 X98.765 Y129.715 E4.4485
G1 X98.544 Y129.807 E4.4569
G1 X86.373 Y129.807 E4.8860
G1 X86.152 Y129.715 E4.8944
G1 X83.640 Y127.205 E5.0196
G1 X83.549 Y126.984 E5.0281
G1 X83.520 Y71.432 E6.9866
G1 X83.611 Y71.211 E6.9950
G1 X83.848 Y70.974 E7.0068
G1 X83.593 Y69.773 E7.0501
G1 X83.589 Y69.670 E7.0538
G1 X83.786 Y68.196 E7.1062
G1 X83.817 Y68.098 E7.1098
G1 X86.484 Y62.921 E7.3151
G1 X86.758 Y62.388 F1200
G92 E0
G1 E-4.5000 F4800
G1 X87.077 Y62.642 F9000
G1 E0.0000 F4800
G92 E0
G1 X87.138 Y62.590 E0.0028 F1200
G1 X90.370 Y61.556 E0.1224
G1 X90.449 Y61.563 E0.1252
G1 X99.579 Y66.266 E0.4873
G1 X99.637 Y66.383 E0.4919
G1 X98.829 Y71.085 E0.6601
G1 X98.973 Y71.229 E0.6673
G1 X98.978 Y71.235 E0.6676
G1 X99.493 Y71.838 E0.6956
G1 X99.498 Y71.844 E0.6958
G1 X99.687 Y72.105 E0.7072
G1 X99.692 Y72.111 E0.7075
G1 X99.864 Y72.392 E0.7191
G1 X100.156 Y71.917 E0.7388
G1 X100.160 Y71.910 E0.7390
G1 X100.349 Y71.650 E0.7504
G1 X100.354 Y71.644 E0.7507
G1 X100.869 Y71.041 E0.7786
G1 X100.874 Y71.035 E0.7789
G1 X100.977 Y70.932 E0.7840
G1 X100.465 Y65.613 E0.9724
G1 X100.532 Y65.500 E0.9770
G1 X109.744 Y61.590 E1.3299
G1 X109.824 Y61.589 E1.3327
G1 X112.970 Y62.860 E1.4523
G1 X113.027 Y62.916 E1.4551
G1 X115.390 Y68.483 E1.6683
G1 X115.397 Y68.513 E1.6694
G1 X115.518 Y69.769 E1.7139
G1 X115.517 Y69.800 E1.7150
G1 X115.357 Y70.552 E1.7421
G1 X116.055 Y71.252 E1.7770
G1 X116.085 Y71.326 E1.7798
G1 X115.949 Y110.719 E3.1686
G1 X115.918 Y110.792 E3.1714
G1 X115.899 Y110.811 E3.1724
G1 X115.899 Y126.709 E3.7328
G1 X115.869 Y126.782 E3.7356
G1 X113.470 Y129.182 E3.8553
G1 X113.396 Y129.212 E3.8581
G1 X101.383 Y129.212 E4.2816
G1 X101.309 Y129.182 E4.2844
G1 X100.021 Y127.893 E4.3487
G1 X98.538 Y129.376 E4.4226
G1 X98.465 Y129.407 E4.4254
G1 X86.452 Y129.407 E4.8489
G1 X86.379 Y129.376 E4.8517
G1 X83.979 Y126.978 E4.9713
G1 X83.949 Y126.905 E4.9741
G1 X83.920 Y71.511 E6.9270
G1 X83.950 Y71.438 E6.9298
G1 X84.285 Y71.104 E6.9465
G1 X83.991 Y69.723 E6.9963
G1 X83.990 Y69.689 E6.9975
G1 X84.178 Y68.283 E7.0475
G1 X84.188 Y68.250 E7.0487
G1 X86.803 Y63.175 E7.2500
G1 X87.077 Y62.642 F1200
G92 E0
G1 E-4.5000 F4800
; outer perimeter
G1 X90.120 Y66.343 F9000
G1 E0.0000 F4800
G92 E0
G1 X94.334 Y68.514 E0.1671 F1200
G1 X90.484 Y69.037 E0.3041
G1 X91.412 Y73.407 E0.4616
G1 X93.760 Y73.407 E0.5444
G1 X94.206 Y73.442 E0.5602
G1 X94.633 Y73.544 E0.5756
G1 X95.039 Y73.712 E0.5911
G1 X95.413 Y73.942 E0.6066
G1 X95.747 Y74.227 E0.6221
G1 X96.033 Y74.561 E0.6376
G1 X96.262 Y74.936 E0.6531
G1 X96.430 Y75.342 E0.6686
G1 X96.533 Y75.769 E0.6841
G1 X96.568 Y76.214 E0.6998
G1 X96.568 Y125.007 E2.4200
G1 X88.348 Y125.007 E2.7098
G1 X88.321 Y73.407 E4.5290
G1 X89.272 Y73.407 E4.5626
G1 X88.457 Y69.572 E4.7008
G1 X89.846 Y66.876 E4.8077
G1 X90.120 Y66.343 F1200
G92 E0
G1 E-4.5000 F4800
; inner perimeter
G1 X90.293 Y66.882 F9000
G1 E0.0000 F4800
G92 E0
G1 X93.023 Y68.288 E0.1083 F1200
G1 X90.003 Y68.699 E0.2158
G1 X91.088 Y73.807 E0.3999
G1 X93.744 Y73.807 E0.4935
G1 X94.143 Y73.838 E0.5076
G1 X94.509 Y73.926 E0.5209
G1 X94.857 Y74.070 E0.5341
G1 X95.178 Y74.266 E0.5474
G1 X95.464 Y74.511 E0.5607
G1 X95.708 Y74.797 E0.5739
G1 X95.905 Y75.118 E0.5872
G1 X96.049 Y75.465 E0.6005
G1 X96.137 Y75.831 E0.6137
G1 X96.168 Y76.230 E0.6278
G1 X96.168 Y124.607 E2.3334
G1 X88.748 Y124.607 E2.5950
G1 X88.741 Y112.109 E3.0356
G1 X89.080 Y112.623 E3.0573
G1 X89.452 Y112.974 E3.0754
G1 X89.895 Y113.230 E3.0934
G1 X90.385 Y113.377 E3.1114
G1 X90.896 Y113.407 E3.1295
G1 X91.400 Y113.318 E3.1475
G1 X91.870 Y113.115 E3.1656
G1 X92.280 Y112.810 E3.1836
G1 X92.609 Y112.418 E3.2017
G1 X92.839 Y111.960 E3.2197
G1 X92.957 Y111.462 E3.2377
G1 X92.957 Y110.951 E3.2558
G1 X92.839 Y110.453 E3.2738
G1 X92.609 Y109.995 E3.2919
G1 X92.280 Y109.603 E3.3099
G1 X91.870 Y109.298 E3.3280
G1 X91.400 Y109.095 E3.3460
G1 X90.896 Y109.006 E3.3640
G1 X90.385 Y109.036 E3.3821
G1 X89.895 Y109.183 E3.4001
G1 X89.452 Y109.439 E3.4182
G1 X89.080 Y109.790 E3.4362
G1 X88.740 Y110.306 E3.4580
G1 X88.721 Y73.807 E4.7448
G1 X89.766 Y73.807 E4.7816
G1 X88.878 Y69.628 E4.9322
G1 X90.018 Y67.415 E5.0200
G1 X90.293 Y66.882 F1200
G92 E0
G1 E-4.5000 F4800
; outer perimeter
G1 X90.389 Y79.048 F9000
G1 E0.0000 F4800
G92 E0
G1 X90.159 Y79.397 E0.0147 F1200
G1 X90.015 Y79.790 E0.0295
G1 X89.967 Y80.205 E0.0442
G1 X90.015 Y80.620 E0.0590
G1 X90.158 Y81.014 E0.0737
G1 X90.387 Y81.363 E0.0884
G1 X90.691 Y81.650 E0.1032
G1 X91.052 Y81.860 E0.1179
G1 X91.452 Y81.980 E0.1326
G1 X91.869 Y82.005 E0.1474
G1 X92.281 Y81.933 E0.1621
G1 X92.665 Y81.769 E0.1768
G1 X93.010 Y81.511 E0.1920
G1 X93.270 Y81.201 E0.2063
G1 X93.458 Y80.828 E0.2210
G1 X93.558 Y80.409 E0.2362
G1 X93.556 Y79.991 E0.2509
G1 X93.459 Y79.586 E0.2656
G1 X93.270 Y79.213 E0.2803
G1 X93.002 Y78.894 E0.2950
G1 X92.666 Y78.645 E0.3098
G1 X92.282 Y78.480 E0.3245
G1 X91.871 Y78.408 E0.3392
G1 X91.454 Y78.433 E0.3539
G1 X91.054 Y78.553 E0.3687
G1 X90.850 Y78.670 E0.3770
G1 X90.692 Y78.761 F1200
G1 X90.389 Y79.048 F1200
G92 E0
G1 E-4.5000 F4800
; inner perimeter
G1 X90.080 Y78.789 F9000
G1 E0.0000 F4800
G92 E0
G1 X89.799 Y79.216 E0.0180 F1200
G1 X89.624 Y79.697 E0.0361
G1 X89.564 Y80.205 E0.0541
G1 X89.623 Y80.713 E0.0721
G1 X89.797 Y81.194 E0.0902
G1 X90.078 Y81.622 E0.1082
G1 X90.450 Y81.973 E0.1263
G1 X90.892 Y82.229 E0.1443
G1 X91.382 Y82.376 E0.1623
G1 X91.892 Y82.407 E0.1803
G1 X92.395 Y82.319 E0.1983
G1 X92.866 Y82.117 E0.2164
G1 X93.286 Y81.803 E0.2349
G1 X93.606 Y81.423 E0.2524
G1 X93.837 Y80.967 E0.2704
G1 X93.958 Y80.455 E0.2890
G1 X93.956 Y79.943 E0.3070
G1 X93.837 Y79.447 E0.3250
G1 X93.606 Y78.991 E0.3430
G1 X93.277 Y78.601 E0.3610
G1 X92.867 Y78.296 E0.3790
G1 X92.397 Y78.094 E0.3970
G1 X91.894 Y78.006 E0.4151
G1 X91.384 Y78.036 E0.4331
G1 X90.895 Y78.183 E0.4511
G1 X90.529 Y78.394 E0.4660
G1 X90.452 Y78.438 F1200
G1 X90.080 Y78.789 F1200
G92 E0
G1 E-4.5000 F4800
; outer perimeter
G1 X90.692 Y98.762 F9000
G1 E0.0000 F4800
G92 E0
G1 X90.388 Y99.049 E0.0147 F1200
G1 X90.158 Y99.398 E0.0295
G1 X90.015 Y99.791 E0.0442
G1 X89.967 Y100.207 E0.0590
G1 X90.015 Y100.622 E0.0737
G1 X90.158 Y101.015 E0.0885
G1 X90.388 Y101.364 E0.1032
G1 X90.692 Y101.651 E0.1180
G1 X91.054 Y101.861 E0.1327
G1 X91.455 Y101.981 E0.1475
G1 X91.873 Y102.005 E0.1622
G1 X92.285 Y101.932 E0.1769
G1 X92.669 Y101.767 E0.1917
G1 X93.004 Y101.517 E0.2064
G1 X93.273 Y101.196 E0.2212
G1 X93.461 Y100.823 E0.2359
G1 X93.557 Y100.416 E0.2507
G1 X93.557 Y99.997 E0.2654
G1 X93.461 Y99.590 E0.2802
G1 X93.273 Y99.217 E0.2949
G1 X93.004 Y98.896 E0.3097
G1 X92.669 Y98.646 E0.3244
G1 X92.285 Y98.481 E0.3392
G1 X91.873 Y98.408 E0.3539
G1 X91.455 Y98.433 E0.3686
G1 X91.229 Y98.500 E0.3770
G1 X91.054 Y98.552 F1200
G1 X90.692 Y98.762 F1200
G92 E0
G1 E-4.5000 F4800
; inner perimeter
G1 X90.452 Y98.439 F9000
G1 E0.0000 F4800
G92 E0
G1 X90.080 Y98.790 E0.0180 F1200
G1 X89.798 Y99.217 E0.0361
G1 X89.623 Y99.698 E0.0541
G1 X89.564 Y100.207 E0.0722
G1 X89.623 Y100.715 E0.0902
G1 X89.798 Y101.196 E0.1083
G1 X90.080 Y101.623 E0.1263
G1 X90.452 Y101.974 E0.1443
G1 X90.895 Y102.230 E0.1624
G1 X91.385 Y102.377 E0.1804
G1 X91.896 Y102.407 E0.1985
G1 X92.400 Y102.318 E0.2165
G1 X92.870 Y102.115 E0.2346
G1 X93.280 Y101.810 E0.2526
G1 X93.609 Y101.418 E0.2706
G1 X93.839 Y100.960 E0.2887
G1 X93.957 Y100.462 E0.3067
G1 X93.957 Y99.951 E0.3248
G1 X93.839 Y99.453 E0.3428
G1 X93.609 Y98.995 E0.3608
G1 X93.280 Y98.603 E0.3789
G1 X92.870 Y98.298 E0.3969
G1 X92.400 Y98.095 E0.4150
G1 X91.896 Y98.006 E0.4330
G1 X91.385 Y98.036 E0.4511
G1 X90.980 Y98.157 E0.4660
G1 X90.895 Y98.183 F1200
G1 X90.452 Y98.439 F1200
G92 E0
G1 E-4.5000 F4800
; outer perimeter
G1 X89.692 Y109.762 F9000
G1 E0.0000 F4800
G92 E0
G1 X89.388 Y110.049 E0.0147 F1200
G1 X89.158 Y110.398 E0.0295
G1 X89.015 Y110.791 E0.0442
G1 X88.967 Y111.207 E0.0590
G1 X89.015 Y111.622 E0.0737
G1 X89.158 Y112.015 E0.0885
G1 X89.388 Y112.364 E0.1032
G1 X89.692 Y112.651 E0.1180
G1 X90.054 Y112.861 E0.1327
G1 X90.455 Y112.981 E0.1475
G1 X90.873 Y113.005 E0.1622
G1 X91.285 Y112.932 E0.1769
G1 X91.669 Y112.767 E0.1917
G1 X92.004 Y112.517 E0.2064
G1 X92.273 Y112.196 E0.2212
G1 X92.461 Y111.823 E0.2359
G1 X92.557 Y111.416 E0.2507
G1 X92.557 Y110.997 E0.2654
G1 X92.461 Y110.590 E0.2802
G1 X92.273 Y110.217 E0.2949
G1 X92.004 Y109.896 E0.3097
G1 X91.669 Y109.646 E0.3244
G1 X91.285 Y109.481 E0.3392
G1 X90.873 Y109.408 E0.3539
G1 X90.455 Y109.433 E0.3686
G1 X90.229 Y109.500 E0.3770
G1 X90.054 Y109.552 F1200
G1 X89.692 Y109.762 F1200
G92 E0
G1 E-4.5000 F4800
; inner perimeter
; solid layer
G1 X89.092 Y108.982 F9000
G1 E0.0000 F4800
G92 E0
G1 X89.255 Y109.146 E0.0082 F1200
G1 X89.614 Y108.938 E0.0228
G1 X89.091 Y108.416 E0.0488
G1 X89.091 Y107.850 E0.0688
G1 X90.019 Y108.778 E0.1151
G1 X90.324 Y108.687 E0.1263
G1 X90.484 Y108.678 E0.1319
G1 X89.091 Y107.284 E0.2014
G1 X89.090 Y106.718 E0.2214
G1 X91.048 Y108.676 E0.3190
G1 X91.502 Y108.756 E0.3352
G1 X91.839 Y108.901 E0.3482
G1 X89.090 Y106.152 E0.4853
G1 X89.090 Y105.586 E0.5052
G1 X95.816 Y112.312 E0.8406
G1 X95.816 Y111.746 E0.8606
G1 X89.090 Y105.020 E1.1959
G1 X89.089 Y104.454 E1.2159
G1 X95.816 Y111.181 E1.5513
G1 X95.816 Y110.615 E1.5712
