; G-Code generated by Simplify3D(R) Version 3.1.0
; Okt. 9, 2016 at 11:48:53 AM
; Settings Summary
;   processName,Process1
;   applyToModels,SilikonKissen-Form,SilikonKissen-Form(2),SilikonKissen-Form(3)
;   profileName,PETG DasFilament (modified)
;   profileVersion,2016-10-08 12:25:58
;   baseProfile,
;   printMaterial,
;   printQuality,
;   printExtruders,
;   extruderName,Primary Extruder
;   extruderToolheadNumber,0
;   extruderDiameter,0.4
;   extruderAutoWidth,0
;   extruderWidth,0.4
;   extrusionMultiplier,1.06
;   extruderUseRetract,1
;   extruderRetractionDistance,4.5
;   extruderExtraRestartDistance,0
;   extruderRetractionZLift,0
;   extruderRetractionSpeed,4800
;   extruderUseCoasting,1
;   extruderCoastingDistance,0.6
;   extruderUseWipe,0
;   extruderWipeDistance,5
;   primaryExtruder,0
;   layerHeight,0.2
;   topSolidLayers,3
;   bottomSolidLayers,3
;   perimeterOutlines,2
;   printPerimetersInsideOut,0
;   startPointOption,3
;   startPointOriginX,0
;   startPointOriginY,0
;   startPointOriginZ,0
;   sequentialIslands,0
;   spiralVaseMode,0
;   firstLayerHeightPercentage,90
;   firstLayerWidthPercentage,100
;   firstLayerUnderspeed,0.5
;   useRaft,0
;   raftExtruder,0
;   raftLayers,3
;   raftOffset,3
;   raftSeparationDistance,0.14
;   raftInfill,85
;   disableRaftBaseLayers,0
;   useSkirt,1
;   skirtExtruder,0
;   skirtLayers,1
;   skirtOutlines,2
;   skirtOffset,4
;   usePrimePillar,0
;   primePillarExtruder,999
;   primePillarWidth,12
;   primePillarLocation,7
;   primePillarSpeedMultiplier,1
;   useOozeShield,0
;   oozeShieldExtruder,999
;   oozeShieldOffset,2
;   oozeShieldOutlines,1
;   oozeShieldSidewallShape,1
;   oozeShieldSidewallAngle,30
;   oozeShieldSpeedMultiplier,1
;   infillExtruder,0
;   internalInfillPattern,Rectilinear
;   externalInfillPattern,Rectilinear
;   infillPercentage,20
;   outlineOverlapPercentage,12
;   infillExtrusionWidthPercentage,100
;   minInfillLength,5
;   infillLayerInterval,1
;   infillAngles,45,-45
;   overlapInfillAngles,0
;   generateSupport,0
;   supportExtruder,0
;   supportInfillPercentage,20
;   supportExtraInflation,1.4
;   denseSupportLayers,0
;   denseSupportInfillPercentage,70
;   supportLayerInterval,1
;   supportHorizontalPartOffset,0.3
;   supportUpperSeparationLayers,1
;   supportLowerSeparationLayers,1
;   supportType,0
;   supportGridSpacing,2
;   maxOverhangAngle,50
;   supportAngles,0
;   temperatureName,Primary Extruder,Heated Bed
;   temperatureNumber,0,0
;   temperatureSetpointCount,1,2
;   temperatureSetpointLayers,1,1,2
;   temperatureSetpointTemperatures,225,90,85
;   temperatureStabilizeAtStartup,1,1
;   temperatureHeatedBed,0,1
;   temperatureRelayBetweenLayers,0,0
;   temperatureRelayBetweenLoops,0,0
;   fanLayers,1,3
;   fanSpeeds,0,80
;   blipFanToFullPower,1
;   adjustSpeedForCooling,1
;   minSpeedLayerTime,15
;   minCoolingSpeedSlowdown,20
;   increaseFanForCooling,1
;   minFanLayerTime,45
;   maxCoolingFanSpeed,100
;   increaseFanForBridging,1
;   bridgingFanSpeed,100
;   use5D,1
;   relativeEdistances,0
;   allowEaxisZeroing,1
;   independentExtruderAxes,0
;   includeM10123,0
;   stickySupport,1
;   applyToolheadOffsets,0
;   gcodeXoffset,0
;   gcodeYoffset,0
;   gcodeZoffset,0
;   overrideMachineDefinition,0
;   machineTypeOverride,0
;   strokeXoverride,200
;   strokeYoverride,200
;   strokeZoverride,200
;   originOffsetXoverride,0
;   originOffsetYoverride,0
;   originOffsetZoverride,0
;   homeXdirOverride,-1
;   homeYdirOverride,-1
;   homeZdirOverride,-1
;   flipXoverride,1
;   flipYoverride,-1
;   flipZoverride,1
;   toolheadOffsets,0,0|0,0|0,0|0,0|0,0|0,0
;   overrideFirmwareConfiguration,0
;   firmwareTypeOverride,RepRap (Marlin/Repetier/Sprinter)
;   GPXconfigOverride,r2
;   baudRateOverride,115200
;   overridePrinterModels,0
;   printerModelsOverride
;   startingGcode,M851 Z-0.8 ; set offset for auto-level-system,G28 ; home all axes,G29 ; Bed levels,G92 E0                  ;zero the extruded length,G1 F200 E5              ;extrude 3mm of feed stock,G92 E0                  ;zero the extruded length again,
;   layerChangeGcode,
;   retractionGcode,
;   toolChangeGcode,
;   endingGcode,G91                                    ;relative positioning,G1 Z+3 E-6 X-20 Y-20 F9000 ;move Z up a bit and retract filament even more,G90                         ;absolute positioning,G1 Y150 X180s,M84 ; disable motors,M104 S0 ; turn off extruder,M140 S0 ; turn off bed,
;   exportFileFormat,gcode
;   celebration,0
;   celebrationSong,Random Song
;   postProcessing,
;   defaultSpeed,2400
;   outlineUnderspeed,1
;   solidInfillUnderspeed,1
;   supportUnderspeed,1
;   rapidXYspeed,9000
;   rapidZspeed,1800
;   minBridgingArea,50
;   bridgingExtraInflation,0
;   bridgingExtrusionMultiplier,1
;   bridgingSpeedMultiplier,0.7
;   filamentDiameter,1.75
;   filamentPricePerKg,26
;   filamentDensity,1.25
;   useMinPrintHeight,0
;   minPrintHeight,0
;   useMaxPrintHeight,0
;   maxPrintHeight,0
;   useDiaphragm,0
;   diaphragmLayerInterval,20
;   robustSlicing,1
;   mergeAllIntoSolid,0
;   onlyRetractWhenCrossingOutline,0
;   retractBetweenLayers,0
;   useRetractionMinTravel,0
;   retractionMinTravel,3
;   retractWhileWiping,1
;   onlyWipeOutlines,0
;   avoidCrossingOutline,0
;   maxMovementDetourFactor,3
;   toolChangeRetractionDistance,12
;   toolChangeExtraRestartDistance,-0.5
;   toolChangeRetractionSpeed,600
;   allowThinWallGapFill,1
;   thinWallAllowedOverlapPercentage,10
;   horizontalSizeCompensation,0
G90
M82
M106 S0
M140 S90
M190 S90
M104 S225 T0
M109 S225 T0
M851 Z-0.8 ; set offset for auto-level-system
G28 ; home all axes
G29 ; Bed levels
G92 E0                  ;zero the extruded length
G1 F200 E5              ;extrude 3mm of feed stock
G92 E0                  ;zero the extruded length again
G92 E0
G1 E-4.5000 F4800
G1 Z0.180 F1800
; layer 1, Z = 0.18
T0
; tool H0.200 W0.400
; skirt
G1 X132.991 Y105.503 F9000
G1 E0.0000 F1440
G92 E0
G1 X135.503 Y102.991 E0.1252 F1200
G1 X135.724 Y102.900 E0.1337
G1 X164.276 Y102.900 E1.1403
G1 X164.497 Y102.991 E1.1487
G1 X167.009 Y105.503 E1.2740
G1 X167.100 Y105.724 E1.2824
G1 X167.100 Y134.276 E2.2890
G1 X167.009 Y134.497 E2.2974
G1 X166.505 Y135.000 E2.3225
G1 X167.009 Y135.503 E2.3476
G1 X167.100 Y135.724 E2.3560
G1 X167.100 Y164.276 E3.3627
G1 X167.009 Y164.497 E3.3711
G1 X166.505 Y165.000 E3.3962
G1 X167.009 Y165.503 E3.4213
G1 X167.100 Y165.724 E3.4297
G1 X167.100 Y194.276 E4.4363
G1 X167.009 Y194.497 E4.4447
G1 X164.497 Y197.009 E4.5700
G1 X164.276 Y197.100 E4.5784
G1 X135.724 Y197.100 E5.5850
G1 X135.503 Y197.009 E5.5934
G1 X132.991 Y194.497 E5.7187
G1 X132.900 Y194.276 E5.7271
G1 X132.900 Y165.724 E6.7337
G1 X132.991 Y165.503 E6.7421
G1 X133.495 Y165.000 E6.7672
G1 X132.991 Y164.497 E6.7923
G1 X132.900 Y164.276 E6.8007
G1 X132.900 Y135.724 E7.8074
G1 X132.991 Y135.503 E7.8158
G1 X133.495 Y135.000 E7.8409
G1 X132.991 Y134.497 E7.8660
G1 X132.900 Y134.276 E7.8744
G1 X132.900 Y106.085 E8.8683
G1 X132.900 Y105.724 F1200
G1 X132.991 Y105.503 F1200
G92 E0
G1 E-4.5000 F4800
G1 X133.330 Y105.730 F9000
G1 E0.0000 F4800
G92 E0
G1 X135.730 Y103.330 E0.1196 F1200
G1 X135.803 Y103.300 E0.1224
G1 X164.197 Y103.300 E1.1235
G1 X164.270 Y103.330 E1.1263
G1 X166.670 Y105.730 E1.2459
G1 X166.700 Y105.803 E1.2487
G1 X166.700 Y134.197 E2.2497
G1 X166.670 Y134.270 E2.2525
G1 X165.940 Y135.000 E2.2889
G1 X166.670 Y135.730 E2.3253
G1 X166.700 Y135.803 E2.3281
G1 X166.700 Y164.197 E3.3291
G1 X166.670 Y164.270 E3.3320
G1 X165.940 Y165.000 E3.3683
G1 X166.670 Y165.730 E3.4047
G1 X166.700 Y165.803 E3.4075
G1 X166.700 Y194.197 E4.4086
G1 X166.670 Y194.270 E4.4114
G1 X164.270 Y196.670 E4.5310
G1 X164.197 Y196.700 E4.5338
G1 X135.803 Y196.700 E5.5348
G1 X135.730 Y196.670 E5.5376
G1 X133.330 Y194.270 E5.6573
G1 X133.300 Y194.197 E5.6601
G1 X133.300 Y165.803 E6.6611
G1 X133.330 Y165.730 E6.6639
G1 X134.060 Y165.000 E6.7003
G1 X133.330 Y164.270 E6.7367
G1 X133.300 Y164.197 E6.7395
G1 X133.300 Y135.803 E7.7405
G1 X133.330 Y135.730 E7.7433
G1 X134.060 Y135.000 E7.7797
G1 X133.330 Y134.270 E7.8161
G1 X133.300 Y134.197 E7.8189
G1 X133.300 Y106.324 E8.8016
G1 X133.300 Y105.803 F1200
G1 X133.330 Y105.730 F1200
G92 E0
G1 E-4.5000 F4800
; outer perimeter
G1 X137.700 Y107.700 F9000
G1 E0.0000 F4800
G92 E0
G1 X162.300 Y107.700 E0.8673 F1200
G1 X162.300 Y132.300 E1.7346
G1 X137.700 Y132.300 E2.6019
G1 X137.700 Y108.300 E3.4480
G1 X137.700 Y107.700 F1200
G92 E0
G1 E-4.5000 F4800
; inner perimeter
G1 X138.100 Y108.100 F9000
G1 E0.0000 F4800
G92 E0
G1 X161.900 Y108.100 E0.8391 F1200
G1 X161.900 Y131.900 E1.6782
G1 X138.100 Y131.900 E2.5173
G1 X138.100 Y108.700 E3.3352
G1 X138.100 Y108.100 F1200
G92 E0
G1 E-4.5000 F4800
; solid layer
G1 X161.061 Y108.452 F9000
G1 E0.0000 F4800
G92 E0
G1 X161.548 Y108.939 E0.0243 F1200
G1 X161.548 Y109.505 E0.0442
G1 X160.495 Y108.452 E0.0967
G1 X159.929 Y108.452 E0.1167
G1 X161.548 Y110.071 E0.1974
G1 X161.548 Y110.636 E0.2173
G1 X159.364 Y108.452 E0.3262
G1 X158.798 Y108.452 E0.3462
G1 X161.548 Y111.202 E0.4833
G1 X161.548 Y111.768 E0.5032
G1 X158.232 Y108.452 E0.6685
G1 X157.667 Y108.452 E0.6885
G1 X161.548 Y112.333 E0.8820
G1 X161.548 Y112.899 E0.9020
G1 X157.101 Y108.452 E1.1237
G1 X156.535 Y108.452 E1.1436
G1 X161.548 Y113.465 E1.3936
G1 X161.548 Y114.030 E1.4135
G1 X155.970 Y108.452 E1.6916
G1 X155.404 Y108.452 E1.7116
G1 X161.548 Y114.596 E2.0179
G1 X161.548 Y115.162 E2.0379
G1 X154.838 Y108.452 E2.3724
G1 X154.273 Y108.452 E2.3924
G1 X161.548 Y115.727 E2.7551
G1 X161.548 Y116.293 E2.7750
G1 X153.707 Y108.452 E3.1660
G1 X153.141 Y108.452 E3.1859
G1 X161.548 Y116.859 E3.6051
G1 X161.548 Y117.425 E3.6250
G1 X152.575 Y108.452 E4.0724
G1 X152.010 Y108.452 E4.0923
G1 X161.548 Y117.990 E4.5679
G1 X161.548 Y118.556 E4.5879
G1 X151.444 Y108.452 E5.0916
G1 X150.878 Y108.452 E5.1116
G1 X161.548 Y119.122 E5.6436
G1 X161.548 Y119.687 E5.6635
G1 X150.313 Y108.452 E6.2237
G1 X149.747 Y108.452 E6.2436
G1 X161.548 Y120.253 E6.8320
G1 X161.548 Y120.819 E6.8520
G1 X149.181 Y108.452 E7.4685
G1 X148.616 Y108.452 E7.4885
G1 X161.548 Y121.384 E8.1333
G1 X161.548 Y121.950 E8.1532
G1 X148.050 Y108.452 E8.8262
G1 X147.484 Y108.452 E8.8462
G1 X161.548 Y122.516 E9.5474
G1 X161.548 Y123.081 E9.5673
G1 X146.919 Y108.452 E10.2967
G1 X146.353 Y108.452 E10.3167
G1 X161.548 Y123.647 E11.0743
G1 X161.548 Y124.213 E11.0942
G1 X145.787 Y108.452 E11.8800
G1 X145.222 Y108.452 E11.9000
G1 X161.548 Y124.778 E12.7140
G1 X161.548 Y125.344 E12.7340
G1 X144.656 Y108.452 E13.5762
G1 X144.090 Y108.452 E13.5961
G1 X161.548 Y125.910 E14.4666
G1 X161.548 Y126.475 E14.4865
G1 X143.525 Y108.452 E15.3851
G1 X142.959 Y108.452 E15.4051
G1 X161.548 Y127.041 E16.3319
G1 X161.548 Y127.607 E16.3519
G1 X142.393 Y108.452 E17.3069
G1 X141.827 Y108.452 E17.3268
G1 X161.548 Y128.173 E18.3101
G1 X161.548 Y128.738 E18.3300
G1 X141.262 Y108.452 E19.3415
G1 X140.696 Y108.452 E19.3614
G1 X161.548 Y129.304 E20.4011
G1 X161.548 Y129.870 E20.4210
G1 X140.130 Y108.452 E21.4889
G1 X139.565 Y108.452 E21.5089
G1 X161.548 Y130.435 E22.6049
G1 X161.548 Y131.001 E22.6249
G1 X138.999 Y108.452 E23.7491
G1 X138.452 Y108.452 E23.7684
G1 X138.452 Y108.471 E23.7691
G1 X161.529 Y131.548 E24.9197
G1 X160.964 Y131.548 E24.9396
G1 X138.452 Y109.036 E26.0621
G1 X138.452 Y109.602 E26.0820
G1 X160.398 Y131.548 E27.1762
G1 X159.832 Y131.548 E27.1961
G1 X138.452 Y110.168 E28.2621
G1 X138.452 Y110.733 E28.2821
G1 X159.267 Y131.548 E29.3199
G1 X158.701 Y131.548 E29.3398
G1 X138.452 Y111.299 E30.3494
G1 X138.452 Y111.865 E30.3694
G1 X158.135 Y131.548 E31.3508
G1 X157.570 Y131.548 E31.3707
G1 X138.452 Y112.430 E32.3239
G1 X138.452 Y112.996 E32.3438
G1 X157.004 Y131.548 E33.2688
G1 X156.438 Y131.548 E33.2888
G1 X138.452 Y113.562 E34.1855
G1 X138.452 Y114.128 E34.2055
G1 X155.872 Y131.548 E35.0740
G1 X155.307 Y131.548 E35.0940
G1 X138.452 Y114.693 E35.9344
G1 X138.452 Y115.259 E35.9543
G1 X154.741 Y131.548 E36.7665
G1 X154.175 Y131.548 E36.7864
G1 X138.452 Y115.825 E37.5704
G1 X138.452 Y116.390 E37.5903
G1 X153.610 Y131.548 E38.3461
G1 X153.044 Y131.548 E38.3660
G1 X138.452 Y116.956 E39.0935
G1 X138.452 Y117.522 E39.1135
G1 X152.478 Y131.548 E39.8128
G1 X151.913 Y131.548 E39.8328
G1 X138.452 Y118.087 E40.5039
G1 X138.452 Y118.653 E40.5239
G1 X151.347 Y131.548 E41.1668
G1 X150.781 Y131.548 E41.1867
G1 X138.452 Y119.219 E41.8015
G1 X138.452 Y119.784 E41.8214
G1 X150.216 Y131.548 E42.4079
G1 X149.650 Y131.548 E42.4279
G1 X138.452 Y120.350 E42.9862
G1 X138.452 Y120.916 E43.0061
G1 X149.084 Y131.548 E43.5363
G1 X148.519 Y131.548 E43.5562
G1 X138.452 Y121.481 E44.0581
G1 X138.452 Y122.047 E44.0781
G1 X147.953 Y131.548 E44.5518
G1 X147.387 Y131.548 E44.5717
G1 X138.452 Y122.613 E45.0172
G1 X138.452 Y123.178 E45.0371
G1 X146.822 Y131.548 E45.4544
G1 X146.256 Y131.548 E45.4744
G1 X138.452 Y123.744 E45.8635
G1 X138.452 Y124.310 E45.8834
G1 X145.690 Y131.548 E46.2443
G1 X145.124 Y131.548 E46.2643
G1 X138.452 Y124.876 E46.5969
G1 X138.452 Y125.441 E46.6169
G1 X144.559 Y131.548 E46.9214
G1 X143.993 Y131.548 E46.9413
G1 X138.452 Y126.007 E47.2176
G1 X138.452 Y126.573 E47.2375
G1 X143.427 Y131.548 E47.4856
G1 X142.862 Y131.548 E47.5055
G1 X138.452 Y127.138 E47.7254
G1 X138.452 Y127.704 E47.7453
G1 X142.296 Y131.548 E47.9370
G1 X141.730 Y131.548 E47.9569
G1 X138.452 Y128.270 E48.1204
G1 X138.452 Y128.835 E48.1403
G1 X141.165 Y131.548 E48.2756
G1 X140.599 Y131.548 E48.2955
G1 X138.452 Y129.401 E48.4026
G1 X138.452 Y129.967 E48.4225
G1 X140.033 Y131.548 E48.5014
G1 X139.468 Y131.548 E48.5213
G1 X138.452 Y130.532 E48.5720
G1 X138.452 Y131.098 E48.5919
G1 X138.477 Y131.123 E48.5932
G1 X138.902 Y131.548 F1200
G92 E0
G1 E-4.5000 F4800
; outer perimeter
G1 X137.700 Y137.700 F9000
G1 E0.0000 F4800
G92 E0
G1 X162.300 Y137.700 E0.8673 F1200
G1 X162.300 Y162.300 E1.7346
G1 X137.700 Y162.300 E2.6019
G1 X137.700 Y138.300 E3.4480
G1 X137.700 Y137.700 F1200
G92 E0
G1 E-4.5000 F4800
; inner perimeter
G1 X138.100 Y138.100 F9000
G1 E0.0000 F4800
G92 E0
G1 X161.900 Y138.100 E0.8391 F1200
G1 X161.900 Y161.900 E1.6782
G1 X138.100 Y161.900 E2.5173
G1 X138.100 Y138.700 E3.3352
G1 X138.100 Y138.100 F1200
G92 E0
G1 E-4.5000 F4800
; solid layer
G1 X161.079 Y138.452 F9000
G1 E0.0000 F4800
G92 E0
G1 X161.548 Y138.921 E0.0234 F1200
G1 X161.548 Y139.486 E0.0433
G1 X160.514 Y138.452 E0.0949
G1 X159.948 Y138.452 E0.1148
G1 X161.548 Y140.052 E0.1946
G1 X161.548 Y140.618 E0.2145
G1 X159.382 Y138.452 E0.3225
G1 X158.817 Y138.452 E0.3425
G1 X161.548 Y141.183 E0.4786
G1 X161.548 Y141.749 E0.4986
G1 X158.251 Y138.452 E0.6630
G1 X157.685 Y138.452 E0.6829
G1 X161.548 Y142.315 E0.8755
G1 X161.548 Y142.880 E0.8954
G1 X157.120 Y138.452 E1.1162
G1 X156.554 Y138.452 E1.1362
G1 X161.548 Y143.446 E1.3852
G1 X161.548 Y144.012 E1.4051
G1 X155.988 Y138.452 E1.6823
G1 X155.423 Y138.452 E1.7023
G1 X161.548 Y144.577 E2.0077
G1 X161.548 Y145.143 E2.0276
G1 X154.857 Y138.452 E2.3612
G1 X154.291 Y138.452 E2.3812
G1 X161.548 Y145.709 E2.7430
G1 X161.548 Y146.274 E2.7629
G1 X153.726 Y138.452 E3.1530
G1 X153.160 Y138.452 E3.1729
G1 X161.548 Y146.840 E3.5911
G1 X161.548 Y147.406 E3.6111
G1 X152.594 Y138.452 E4.0575
G1 X152.028 Y138.452 E4.0775
G1 X161.548 Y147.972 E4.5521
G1 X161.548 Y148.537 E4.5720
G1 X151.463 Y138.452 E5.0749
G1 X150.897 Y138.452 E5.0948
G1 X161.548 Y149.103 E5.6259
G1 X161.548 Y149.669 E5.6458
G1 X150.331 Y138.452 E6.2051
G1 X149.766 Y138.452 E6.2250
G1 X161.548 Y150.234 E6.8125
G1 X161.548 Y150.800 E6.8324
G1 X149.200 Y138.452 E7.4481
G1 X148.634 Y138.452 E7.4680
G1 X161.548 Y151.366 E8.1119
G1 X161.548 Y151.931 E8.1318
G1 X148.069 Y138.452 E8.8039
G1 X147.503 Y138.452 E8.8238
G1 X161.548 Y152.497 E9.5241
G1 X161.548 Y153.063 E9.5440
G1 X146.937 Y138.452 E10.2725
G1 X146.372 Y138.452 E10.2925
G1 X161.548 Y153.628 E11.0491
G1 X161.548 Y154.194 E11.0691
G1 X145.806 Y138.452 E11.8540
G1 X145.240 Y138.452 E11.8739
G1 X161.548 Y154.760 E12.6870
G1 X161.548 Y155.325 E12.7070
G1 X144.675 Y138.452 E13.5482
G1 X144.109 Y138.452 E13.5682
G1 X161.548 Y155.891 E14.4377
G1 X161.548 Y156.457 E14.4576
G1 X143.543 Y138.452 E15.3553
