; G-Code generated by Simplify3D(R) Version 3.1.0
; Aug. 7, 2016 at 4:35:08 PM
; Settings Summary
;   processName,Pieps
;   applyToModels,z-belt-clamp-left,z-belt-clamp-left(2),Z-belt-clamp-top-left,Z-belt-clamp-top-left(2)
;   profileName,Pieps PETG 3DPSP
;   profileVersion,2016-08-03 18:23:23
;   baseProfile,Default
;   printMaterial,PETG 3DPSP
;   printQuality,Medium
;   printExtruders,
;   extruderName,Primary Extruder
;   extruderToolheadNumber,0
;   extruderDiameter,0.5
;   extruderAutoWidth,0
;   extruderWidth,0.5
;   extrusionMultiplier,1
;   extruderUseRetract,1
;   extruderRetractionDistance,4
;   extruderExtraRestartDistance,0
;   extruderRetractionZLift,0
;   extruderRetractionSpeed,6000
;   extruderUseCoasting,1
;   extruderCoastingDistance,0.8
;   extruderUseWipe,0
;   extruderWipeDistance,5
;   primaryExtruder,0
;   layerHeight,0.24
;   topSolidLayers,3
;   bottomSolidLayers,3
;   perimeterOutlines,2
;   printPerimetersInsideOut,0
;   startPointOption,3
;   startPointOriginX,0
;   startPointOriginY,0
;   startPointOriginZ,0
;   sequentialIslands,0
;   spiralVaseMode,0
;   firstLayerHeightPercentage,100
;   firstLayerWidthPercentage,100
;   firstLayerUnderspeed,0.75
;   useRaft,0
;   raftExtruder,0
;   raftLayers,3
;   raftOffset,3
;   raftSeparationDistance,0.14
;   raftInfill,85
;   disableRaftBaseLayers,0
;   useSkirt,1
;   skirtExtruder,0
;   skirtLayers,1
;   skirtOutlines,2
;   skirtOffset,2
;   usePrimePillar,0
;   primePillarExtruder,999
;   primePillarWidth,12
;   primePillarLocation,7
;   primePillarSpeedMultiplier,1
;   useOozeShield,0
;   oozeShieldExtruder,999
;   oozeShieldOffset,2
;   oozeShieldOutlines,1
;   oozeShieldSidewallShape,1
;   oozeShieldSidewallAngle,30
;   oozeShieldSpeedMultiplier,1
;   infillExtruder,0
;   internalInfillPattern,Rectilinear
;   externalInfillPattern,Rectilinear
;   infillPercentage,20
;   outlineOverlapPercentage,13
;   infillExtrusionWidthPercentage,100
;   minInfillLength,5
;   infillLayerInterval,1
;   infillAngles,45,-45
;   overlapInfillAngles,0
;   generateSupport,0
;   supportExtruder,0
;   supportInfillPercentage,20
;   supportExtraInflation,1.4
;   denseSupportLayers,0
;   denseSupportInfillPercentage,70
;   supportLayerInterval,1
;   supportHorizontalPartOffset,0.3
;   supportUpperSeparationLayers,1
;   supportLowerSeparationLayers,1
;   supportType,0
;   supportGridSpacing,2
;   maxOverhangAngle,45
;   supportAngles,0
;   temperatureName,Primary Extruder,Heated Bed
;   temperatureNumber,0,0
;   temperatureSetpointCount,1,2
;   temperatureSetpointLayers,1,1,2
;   temperatureSetpointTemperatures,230,90,80
;   temperatureStabilizeAtStartup,1,1
;   temperatureHeatedBed,0,1
;   temperatureRelayBetweenLayers,0,0
;   temperatureRelayBetweenLoops,0,0
;   fanLayers,1,3
;   fanSpeeds,0,100
;   blipFanToFullPower,1
;   adjustSpeedForCooling,0
;   minSpeedLayerTime,15
;   minCoolingSpeedSlowdown,20
;   increaseFanForCooling,1
;   minFanLayerTime,45
;   maxCoolingFanSpeed,100
;   increaseFanForBridging,1
;   bridgingFanSpeed,100
;   use5D,1
;   relativeEdistances,0
;   allowEaxisZeroing,1
;   independentExtruderAxes,0
;   includeM10123,0
;   stickySupport,1
;   applyToolheadOffsets,0
;   gcodeXoffset,0
;   gcodeYoffset,0
;   gcodeZoffset,0
;   overrideMachineDefinition,0
;   machineTypeOverride,0
;   strokeXoverride,200
;   strokeYoverride,200
;   strokeZoverride,200
;   originOffsetXoverride,0
;   originOffsetYoverride,0
;   originOffsetZoverride,0
;   homeXdirOverride,-1
;   homeYdirOverride,-1
;   homeZdirOverride,-1
;   flipXoverride,1
;   flipYoverride,-1
;   flipZoverride,1
;   toolheadOffsets,0,0|0,0|0,0|0,0|0,0|0,0
;   overrideFirmwareConfiguration,0
;   firmwareTypeOverride,RepRap (Marlin/Repetier/Sprinter)
;   GPXconfigOverride,r2
;   baudRateOverride,115200
;   overridePrinterModels,0
;   printerModelsOverride
;   startingGcode,G28 ; home all axes,G1 Z5 F5000 ; lift Z by 5 mm,M851 Z-1.4 ; set offset for auto-level-system,G29 ; Bed levels,G92 E0                  ;zero the extruded length,G1 F200 E7              ;extrude 3mm of feed stock,G92 E0                  ;zero the extruded length again,
;   layerChangeGcode,
;   retractionGcode,
;   toolChangeGcode,
;   endingGcode,G91                                    ;relative positioning,G1 Z+3 E-8 X-20 Y-20 F9000 ;move Z up a bit and retract filament even more,G90                         ;absolute positioning,M104 S0 ; turn off extruder,M140 S0 ; turn off bed,G1 Y150 X180s,M84 ; disable motors
;   exportFileFormat,gcode
;   celebration,0
;   celebrationSong,Random Song
;   postProcessing,
;   defaultSpeed,2400
;   outlineUnderspeed,1
;   solidInfillUnderspeed,1
;   supportUnderspeed,1
;   rapidXYspeed,9000
;   rapidZspeed,1800
;   minBridgingArea,50
;   bridgingExtraInflation,0
;   bridgingExtrusionMultiplier,1
;   bridgingSpeedMultiplier,0.7
;   filamentDiameter,1.75
;   filamentPricePerKg,26
;   filamentDensity,1.25
;   useMinPrintHeight,0
;   minPrintHeight,0
;   useMaxPrintHeight,0
;   maxPrintHeight,0
;   useDiaphragm,0
;   diaphragmLayerInterval,20
;   robustSlicing,1
;   mergeAllIntoSolid,0
;   onlyRetractWhenCrossingOutline,1
;   retractBetweenLayers,1
;   useRetractionMinTravel,0
;   retractionMinTravel,3
;   retractWhileWiping,1
;   onlyWipeOutlines,1
;   avoidCrossingOutline,0
;   maxMovementDetourFactor,3
;   toolChangeRetractionDistance,12
;   toolChangeExtraRestartDistance,-0.5
;   toolChangeRetractionSpeed,600
;   allowThinWallGapFill,1
;   thinWallAllowedOverlapPercentage,10
;   horizontalSizeCompensation,0
G90
M82
M106 S0
M140 S90
M190 S90
M104 S230 T0
M109 S230 T0
G28 ; home all axes
G1 Z5 F5000 ; lift Z by 5 mm
M851 Z-1.4 ; set offset for auto-level-system
G29 ; Bed levels
G92 E0                  ;zero the extruded length
G1 F200 E7              ;extrude 3mm of feed stock
G92 E0                  ;zero the extruded length again
G92 E0
G1 E-4.0000 F6000
G1 Z0.240 F1800
; layer 1, Z = 0.24
T0
; tool H0.240 W0.500
; skirt
G1 X69.864 Y61.747 F9000
G1 E0.0000 F1800
G92 E0
G1 X71.247 Y60.364 E0.0975 F1800
G1 X71.522 Y60.250 E0.1124
G1 X128.478 Y60.250 E2.9539
G1 X128.753 Y60.364 E2.9688
G1 X130.136 Y61.747 E3.0664
G1 X130.250 Y62.022 E3.0813
G1 X130.250 Y83.978 E4.1766
G1 X130.136 Y84.253 E4.1915
G1 X128.889 Y85.500 E4.2795
G1 X130.136 Y86.747 E4.3674
G1 X130.250 Y87.022 E4.3823
G1 X130.250 Y108.978 E5.4777
G1 X130.136 Y109.253 E5.4925
G1 X128.889 Y110.500 E5.5805
G1 X130.136 Y111.747 E5.6685
G1 X130.250 Y112.022 E5.6834
G1 X130.250 Y127.978 E6.4794
G1 X130.136 Y128.253 E6.4943
G1 X128.753 Y129.636 E6.5918
G1 X128.478 Y129.750 E6.6067
G1 X101.522 Y129.750 E7.9515
G1 X101.247 Y129.636 E7.9664
G1 X100.000 Y128.389 E8.0543
G1 X98.753 Y129.636 E8.1423
G1 X98.478 Y129.750 E8.1572
G1 X71.522 Y129.750 E9.5020
G1 X71.247 Y129.636 E9.5169
G1 X69.864 Y128.253 E9.6144
G1 X69.750 Y127.978 E9.6293
G1 X69.750 Y112.022 E10.4253
G1 X69.864 Y111.747 E10.4402
G1 X71.111 Y110.500 E10.5282
G1 X69.864 Y109.253 E10.6161
G1 X69.750 Y108.978 E10.6310
G1 X69.750 Y87.022 E11.7264
G1 X69.864 Y86.747 E11.7412
G1 X71.111 Y85.500 E11.8292
G1 X69.864 Y84.253 E11.9172
G1 X69.750 Y83.978 E11.9321
G1 X69.750 Y62.524 E13.0024
G1 X69.750 Y62.022 F1800
G1 X69.864 Y61.747 F1800
G92 E0
G1 E-4.0000 F6000
G1 X99.139 Y110.750 F9000
G1 E0.0000 F6000
G92 E0
G1 X100.000 Y111.611 E0.0607 F1800
G1 X100.861 Y110.750 E0.1215
G1 X99.939 Y110.750 E0.1675
G1 X99.139 Y110.750 F1800
G1 X98.470 Y110.788 F9000
G92 E0
G1 X99.712 Y112.030 E0.0876 F1800
G1 X99.750 Y112.122 E0.0926
G1 X99.750 Y127.878 E0.8787
G1 X99.712 Y127.970 E0.8836
G1 X98.470 Y129.212 E0.9713
G1 X98.378 Y129.250 E0.9762
G1 X71.622 Y129.250 E2.3111
G1 X71.530 Y129.212 E2.3161
G1 X70.288 Y127.970 E2.4037
G1 X70.250 Y127.878 E2.4086
G1 X70.250 Y112.122 E3.1947
G1 X70.288 Y112.030 E3.1997
G1 X71.530 Y110.788 E3.2873
G1 X71.622 Y110.750 E3.2923
G1 X97.678 Y110.750 E4.5922
G1 X98.378 Y110.750 F1800
G1 X98.470 Y110.788 F1800
G1 X100.288 Y112.030 F9000
G92 E0
G1 X101.530 Y110.788 E0.0876 F1800
G1 X101.622 Y110.750 E0.0926
G1 X128.378 Y110.750 E1.4275
G1 X128.470 Y110.788 E1.4324
G1 X129.712 Y112.030 E1.5200
G1 X129.750 Y112.122 E1.5250
G1 X129.750 Y127.878 E2.3111
G1 X129.712 Y127.970 E2.3161
G1 X128.470 Y129.212 E2.4037
G1 X128.378 Y129.250 E2.4086
G1 X101.622 Y129.250 E3.7435
G1 X101.530 Y129.212 E3.7485
G1 X100.288 Y127.970 E3.8361
G1 X100.250 Y127.878 E3.8411
G1 X100.250 Y112.822 E4.5922
G1 X100.250 Y112.122 F1800
G1 X100.288 Y112.030 F1800
G1 X128.378 Y110.250 F9000
G92 E0
G1 X71.622 Y110.250 E2.8316 F1800
G1 X71.530 Y110.212 E2.8365
G1 X70.288 Y108.970 E2.9242
G1 X70.250 Y108.878 E2.9291
G1 X70.250 Y87.122 E4.0146
G1 X70.288 Y87.030 E4.0195
G1 X71.530 Y85.788 E4.1071
G1 X71.622 Y85.750 E4.1121
G1 X128.378 Y85.750 E6.9437
G1 X128.470 Y85.788 E6.9486
G1 X129.712 Y87.030 E7.0363
G1 X129.750 Y87.122 E7.0412
G1 X129.750 Y108.878 E8.1267
G1 X129.712 Y108.970 E8.1316
G1 X128.965 Y109.717 E8.1843
G1 X128.470 Y110.212 F1800
G1 X128.378 Y110.250 F1800
G1 X128.378 Y85.250 F9000
G92 E0
G1 X71.622 Y85.250 E2.8316 F1800
G1 X71.530 Y85.212 E2.8365
G1 X70.288 Y83.970 E2.9242
G1 X70.250 Y83.878 E2.9291
G1 X70.250 Y62.122 E4.0146
G1 X70.288 Y62.030 E4.0195
G1 X71.530 Y60.788 E4.1071
G1 X71.622 Y60.750 E4.1121
G1 X128.378 Y60.750 E6.9437
G1 X128.470 Y60.788 E6.9486
G1 X129.712 Y62.030 E7.0363
G1 X129.750 Y62.122 E7.0412
G1 X129.750 Y83.878 E8.1267
G1 X129.712 Y83.970 E8.1316
G1 X128.965 Y84.717 E8.1843
G1 X128.470 Y85.212 F1800
G1 X128.378 Y85.250 F1800
G92 E0
G1 E-4.0000 F6000
; outer perimeter
G1 X72.750 Y63.250 F9000
G1 E0.0000 F6000
G92 E0
G1 X127.250 Y63.250 E2.7190 F1800
G1 X127.250 Y82.750 E3.6919
G1 X72.750 Y82.750 E6.4109
G1 X72.750 Y64.050 E7.3438
G1 X72.750 Y63.250 F1800
; inner perimeter
G1 X73.250 Y63.750 F9000
G92 E0
G1 X126.750 Y63.750 E2.6691 F1800
G1 X126.750 Y82.250 E3.5921
G1 X73.250 Y82.250 E6.2612
G1 X73.250 Y64.550 E7.1443
G1 X73.250 Y63.750 F1800
; outer perimeter
G1 X77.250 Y67.250 F9000
G92 E0
G1 X77.250 Y78.750 E0.5737 F1800
G1 X97.750 Y78.750 E1.5965
G1 X97.750 Y67.250 E2.1702
G1 X78.050 Y67.250 E3.1531
G1 X77.250 Y67.250 F1800
; inner perimeter
G1 X76.750 Y66.750 F9000
G92 E0
G1 X76.750 Y79.250 E0.6236 F1800
G1 X98.250 Y79.250 E1.6963
G1 X98.250 Y66.750 E2.3199
G1 X77.550 Y66.750 E3.3526
G1 X76.750 Y66.750 F1800
G92 E0
G1 E-4.0000 F6000
; outer perimeter
G1 X104.042 Y68.941 F9000
G1 E0.0000 F6000
G92 E0
G1 X103.825 Y69.337 E0.0225 F1800
G1 X103.712 Y69.774 E0.0451
G1 X103.712 Y70.226 E0.0676
G1 X103.825 Y70.663 E0.0901
G1 X104.042 Y71.059 E0.1127
G1 X104.351 Y71.388 E0.1352
G1 X104.733 Y71.630 E0.1577
G1 X105.162 Y71.770 E0.1803
G1 X105.613 Y71.798 E0.2028
G1 X106.057 Y71.714 E0.2254
G1 X106.466 Y71.521 E0.2479
G1 X106.814 Y71.234 E0.2704
G1 X107.079 Y70.868 E0.2930
G1 X107.245 Y70.448 E0.3155
G1 X107.302 Y70.000 E0.3380
G1 X107.245 Y69.552 E0.3606
G1 X107.079 Y69.132 E0.3831
G1 X106.814 Y68.766 E0.4056
G1 X106.466 Y68.479 E0.4282
G1 X106.057 Y68.286 E0.4507
G1 X105.613 Y68.202 E0.4732
G1 X105.162 Y68.230 E0.4958
G1 X104.733 Y68.370 E0.5183
G1 X104.645 Y68.425 E0.5235
G1 X104.351 Y68.612 F1800
G1 X104.042 Y68.941 F1800
; inner perimeter
G1 X103.634 Y68.645 F9000
G92 E0
G1 X103.356 Y69.151 E0.0288 F1800
G1 X103.212 Y69.711 E0.0577
G1 X103.212 Y70.289 E0.0865
G1 X103.356 Y70.849 E0.1154
G1 X103.634 Y71.355 E0.1442
G1 X104.030 Y71.777 E0.1730
G1 X104.518 Y72.086 E0.2019
G1 X105.068 Y72.265 E0.2307
G1 X105.645 Y72.301 E0.2595
G1 X106.213 Y72.193 E0.2884
G1 X106.736 Y71.947 E0.3172
G1 X107.181 Y71.579 E0.3461
G1 X107.521 Y71.111 E0.3749
G1 X107.734 Y70.573 E0.4037
G1 X107.806 Y70.000 E0.4326
G1 X107.734 Y69.427 E0.4614
G1 X107.521 Y68.889 E0.4902
G1 X107.181 Y68.421 E0.5191
G1 X106.736 Y68.053 E0.5479
G1 X106.213 Y67.807 E0.5768
G1 X105.645 Y67.699 E0.6056
G1 X105.068 Y67.735 E0.6344
G1 X104.518 Y67.913 E0.6633
G1 X104.218 Y68.104 E0.6810
G1 X104.030 Y68.223 F1800
G1 X103.634 Y68.645 F1800
G92 E0
G1 E-4.0000 F6000
; outer perimeter
G1 X122.042 Y68.941 F9000
G1 E0.0000 F6000
G92 E0
G1 X121.825 Y69.337 E0.0225 F1800
G1 X121.712 Y69.774 E0.0451
G1 X121.712 Y70.226 E0.0676
G1 X121.825 Y70.663 E0.0901
G1 X122.042 Y71.059 E0.1127
G1 X122.351 Y71.388 E0.1352
G1 X122.733 Y71.630 E0.1577
G1 X123.162 Y71.770 E0.1803
G1 X123.613 Y71.798 E0.2028
G1 X124.057 Y71.714 E0.2254
G1 X124.466 Y71.521 E0.2479
G1 X124.814 Y71.234 E0.2704
G1 X125.079 Y70.868 E0.2930
G1 X125.245 Y70.448 E0.3155
G1 X125.302 Y70.000 E0.3380
G1 X125.245 Y69.552 E0.3606
G1 X125.079 Y69.132 E0.3831
G1 X124.814 Y68.766 E0.4056
G1 X124.466 Y68.479 E0.4282
G1 X124.057 Y68.286 E0.4507
G1 X123.613 Y68.202 E0.4732
G1 X123.162 Y68.230 E0.4958
G1 X122.733 Y68.370 E0.5183
G1 X122.645 Y68.425 E0.5235
G1 X122.351 Y68.612 F1800
G1 X122.042 Y68.941 F1800
; inner perimeter
G1 X121.634 Y68.645 F9000
G92 E0
G1 X121.356 Y69.151 E0.0288 F1800
G1 X121.212 Y69.711 E0.0577
G1 X121.212 Y70.289 E0.0865
G1 X121.356 Y70.849 E0.1154
G1 X121.634 Y71.355 E0.1442
G1 X122.030 Y71.777 E0.1730
G1 X122.518 Y72.086 E0.2019
G1 X123.068 Y72.265 E0.2307
G1 X123.645 Y72.301 E0.2595
G1 X124.213 Y72.193 E0.2884
G1 X124.736 Y71.947 E0.3172
G1 X125.181 Y71.579 E0.3461
G1 X125.521 Y71.111 E0.3749
G1 X125.734 Y70.573 E0.4037
G1 X125.806 Y70.000 E0.4326
G1 X125.734 Y69.427 E0.4614
G1 X125.521 Y68.889 E0.4902
G1 X125.181 Y68.421 E0.5191
G1 X124.736 Y68.053 E0.5479
G1 X124.213 Y67.807 E0.5768
G1 X123.645 Y67.699 E0.6056
G1 X123.068 Y67.735 E0.6344
G1 X122.518 Y67.913 E0.6633
G1 X122.218 Y68.104 E0.6810
G1 X122.030 Y68.223 F1800
G1 X121.634 Y68.645 F1800
G92 E0
G1 E-4.0000 F6000
; solid layer
G1 X125.642 Y68.316 F9000
G1 E0.0000 F6000
G92 E0
G1 X126.315 Y68.989 E0.0475 F1800
G1 X126.315 Y69.696 E0.0827
G1 X126.190 Y69.571 E0.0915
G1 X126.244 Y70.000 E0.1131
G1 X126.207 Y70.295 E0.1279
G1 X126.315 Y70.403 E0.1356
G1 X126.315 Y71.110 E0.1708
G1 X126.081 Y70.877 E0.1873
G1 X125.905 Y71.322 E0.2112
G1 X125.869 Y71.372 E0.2143
G1 X126.315 Y71.818 E0.2457
G1 X126.315 Y72.525 E0.2810
G1 X125.571 Y71.781 E0.3335
G1 X125.501 Y71.879 E0.3395
G1 X125.206 Y72.123 E0.3586
G1 X126.315 Y73.232 E0.4368
G1 X126.315 Y73.939 E0.4721
G1 X124.782 Y72.406 E0.5803
G1 X124.348 Y72.610 E0.6042
G1 X124.290 Y72.621 E0.6071
G1 X126.315 Y74.646 E0.7500
G1 X126.315 Y75.353 E0.7853
G1 X124.262 Y73.300 E0.9301
G1 X123.696 Y72.734 F1800
G92 E0
G1 E-4.0000 F6000
G1 X125.754 Y64.185 F9000
G1 E0.0000 F6000
G92 E0
G1 X126.315 Y64.746 E0.0396 F1800
G1 X126.315 Y65.454 E0.0749
G1 X125.046 Y64.185 E0.1644
G1 X124.339 Y64.185 E0.1997
G1 X126.315 Y66.161 E0.3391
G1 X126.315 Y66.868 E0.3743
G1 X123.632 Y64.185 E0.5636
G1 X122.925 Y64.185 E0.5989
G1 X126.315 Y67.575 E0.8381
G1 X126.315 Y68.282 E0.8734
G1 X122.218 Y64.185 E1.1624
G1 X121.511 Y64.185 E1.1977
G1 X125.192 Y67.866 E1.4574
G1 X124.971 Y67.683 E1.4717
G1 X124.348 Y67.390 E1.5060
G1 X123.929 Y67.310 E1.5273
G1 X120.804 Y64.185 E1.7478
G1 X120.097 Y64.185 E1.7831
G1 X123.202 Y67.291 E2.0022
G1 X122.986 Y67.304 E2.0130
G1 X122.626 Y67.421 E2.0319
G1 X119.390 Y64.185 E2.2602
G1 X118.682 Y64.185 E2.2955
G1 X122.137 Y67.640 E2.5393
G1 X121.751 Y67.885 E2.5621
G1 X121.714 Y67.924 E2.5648
G1 X117.975 Y64.185 E2.8286
G1 X117.268 Y64.185 E2.8639
G1 X121.372 Y68.289 E3.1534
G1 X121.280 Y68.387 E3.1601
G1 X121.096 Y68.720 E3.1791
G1 X116.561 Y64.185 E3.4991
G1 X115.854 Y64.185 E3.5344
G1 X120.889 Y69.220 E3.8896
G1 X120.777 Y69.656 E3.9121
G1 X120.777 Y69.815 E3.9200
G1 X115.147 Y64.185 E4.3173
G1 X114.440 Y64.185 E4.3525
G1 X120.839 Y70.584 E4.8040
G1 X120.948 Y71.010 E4.8260
G1 X121.280 Y71.613 E4.8603
G1 X121.751 Y72.115 E4.8946
G1 X122.331 Y72.483 E4.9289
G1 X122.934 Y72.679 E4.9605
G1 X126.315 Y76.060 E5.1991
G1 X126.315 Y76.767 E5.2344
G1 X113.733 Y64.185 E6.1221
G1 X113.026 Y64.185 E6.1574
G1 X126.315 Y77.474 E7.0950
G1 X126.315 Y78.181 E7.1303
G1 X112.319 Y64.185 E8.1178
G1 X111.611 Y64.185 E8.1531
G1 X126.315 Y78.889 E9.1905
G1 X126.315 Y79.596 E9.2258
G1 X110.904 Y64.185 E10.3131
G1 X110.197 Y64.185 E10.3484
G1 X126.315 Y80.303 E11.4856
G1 X126.315 Y81.010 E11.5209
G1 X109.490 Y64.185 E12.7080
G1 X108.783 Y64.185 E12.7432
